;FLAVOR:Marlin
;TIME:1803
;Filament used: 0.547901m
;Layer height: 0.08
;MINX:-10.227
;MINY:-9.739
;MINZ:0.2
;MAXX:10.249
;MAXY:9.74
;MAXZ:17
;Generated with Cura_SteamEngine 5.4.0
M82 ;absolute extrusion mode
M140 S0
M104 S200 T0
M104 S0 T1
M107
G90
G28
M132 X Y Z A B
G1 Z50.00 F400
G161 X Y F3300
M6 T0
M907 X100 Y100 Z40 A80 B20
M108 T0
G1 Z.20 F400
G92 E0
G92 E0
G1 F1800 E-1.3
;LAYER_COUNT:211
;LAYER:0
M106 S255
;MESH:D12_17mm.stl
G0 F3000 X0.819 Y0.521 Z0.2
;TYPE:WALL-INNER
G1 F1800 E0
G1 F1109.4 X0.695 Y0.676 E0.01178
G1 F1216.2 X0.398 Y0.982 E0.03487
G1 F1541.8 X0.154 Y1.198 E0.04879
G1 F1951.2 X-0.036 Y1.404 E0.05825
G1 F2093 X-0.095 Y1.492 E0.06158
G1 F1800 E-1.23842
G0 F3000 X-.334 Y2.234
G0 X1.056 Y3.651
G0 X1.428 Y3.5
G0 X1.273 Y3.252
G1 F1800 E0.06158
G1 F1500 X1.096 Y3.249 E0.06936
G1 X0.947 Y3.211 E0.07611
G1 X0.86 Y3.172 E0.08029
G1 X0.676 Y3.032 E0.09044
G1 X-0.07 Y2.247 E0.13799
G1 X-.167 Y2.091 E0.14605
G1 F1739.1 X-0.095 Y1.492 E0.1689
G1 X-.6 Y1.819 E0.19168
G1 F1500 X-.785 Y1.8 E0.19985
G1 X-.944 Y1.742 E0.20728
G1 X-3.391 Y0.503 E0.32769
G1 F1355.9 X-3.794 Y0.114 E0.3549
G1 F1172.6 X-3.857 Y-0.001 E0.36226
G1 F1119.8 X-3.864 Y-.14 E0.37045
G1 X-3.857 Y-.279 E0.37863
G1 F1258.7 X-3.691 Y-.514 E0.39368
G1 F1475.4 X-2.971 Y-1.702 E0.45569
G1 F1500 X-2.316 Y-3.197 E0.52735
G1 F1409 X-2.008 Y-3.571 E0.54999
G1 F1338.3 X-1.845 Y-3.631 E0.55854
G1 X-1.763 Y-3.651 E0.56269
G1 F1409 X-1.232 Y-3.49 E0.58863
G1 F1500 X-.294 Y-2.809 E0.63952
G1 X-.179 Y-2.704 E0.64636
G1 X-.123 Y-2.632 E0.65036
G1 X-0.047 Y-2.491 E0.65739
G1 X-0.014 Y-2.379 E0.66252
G1 X0.00 Y-2.284 E0.66673
G1 X-0.004 Y-2.125 E0.67372
G1 X-0.02 Y-2.046 E0.67726
G1 X-0.043 Y-1.989 E0.67995
G1 X0.087 Y-2.053 E0.68632
G1 X0.353 Y-2.15 E0.69875
G1 X0.608 Y-2.208 E0.71023
G1 X0.825 Y-2.234 E0.71982
G1 X1.09 Y-2.232 E0.73146
G1 X1.4 Y-2.184 E0.74523
G1 X1.655 Y-2.107 E0.75692
G1 X1.899 Y-1.997 E0.76868
G1 X2.212 Y-1.802 E0.78487
G1 X2.483 Y-1.57 E0.80053
G1 X2.722 Y-1.293 E0.81659
G1 X2.901 Y-1.011 E0.83125
G1 X3.049 Y-.692 E0.84669
G1 X3.15 Y-.367 E0.86164
G1 X3.212 Y-0.02 E0.87711
G1 X3.23 Y0.329 E0.89245
G1 X3.216 Y0.601 E0.90441
G1 X3.14 Y1.038 E0.92388
G1 X3.031 Y1.383 E0.93977
G1 X2.897 Y1.686 E0.95431
G1 X2.741 Y1.967 E0.96843
G1 X2.499 Y2.322 E0.98729
G1 X2.198 Y2.661 E1.00719
G1 X1.922 Y2.906 E1.02339
G1 X1.746 Y3.039 E1.03308
G1 X1.581 Y3.147 E1.04174
G1 X1.273 Y3.252 E1.05602
G1 F1800 E-0.24398
G0 F3000 X1.428 Y3.5
G0 X1.056 Y3.651
G0 X-4.286 Y0.215
G0 X-4.363 Y0.054
G0 X-4.5 Y0.054
G1 F1800 E1.05602
G1 F1172.6 X-4.532 Y0.238 E1.06651
G1 F1355.9 X-4.582 Y1.235 E1.115
G1 F1500 X-4.582 Y3.329 E1.20693
G1 X1.751 Y5.389 E1.49931
G1 X5.668 Y0.00 E1.7918
G1 X1.75 Y-5.388 E2.08428
G1 X-1.077 Y-4.469 E2.21479
G1 F1409 X-1.884 Y-4.176 E2.25492
G1 F1328.4 X-2.218 Y-4.067 E2.27233
G1 F1409 X-2.924 Y-3.868 E2.30662
G1 F1500 X-4.582 Y-3.329 E2.38316
G1 F1475.4 X-4.575 Y-.758 E2.49792
G1 F1258.7 X-4.5 Y-.334 E2.52044
G1 F1112.8 X-4.5 Y0.054 E2.5434
G1 F1800 E1.2434
G0 F3000 X-4.363 Y0.054
G0 X-4.301 Y0.183
G0 X0.618 Y3.289
G0 X1.164 Y2.773
;TYPE:WALL-OUTER
G1 F1800 E2.5434
G1 F1500 X1.085 Y2.748 E2.54704
G1 X1.024 Y2.701 E2.55042
G1 X0.302 Y1.943 E2.59638
G1 X0.269 Y1.891 E2.59909
G1 X0.275 Y1.664 E2.60906
G1 X0.369 Y1.58 E2.61459
G1 X0.669 Y1.411 E2.62971
G1 X0.884 Y1.26 E2.64124
G1 X1.09 Y1.08 E2.65325
G1 X1.191 Y0.969 E2.65984
G1 X1.274 Y0.858 E2.66593
G1 X1.343 Y0.745 E2.67174
G1 X1.409 Y0.572 E2.67987
G1 X1.428 Y0.476 E2.68416
G1 X1.435 Y0.294 E2.69216
G1 X1.408 Y0.17 E2.69773
G1 X1.376 Y0.095 E2.70131
G1 X1.314 Y0.007 E2.70604
G1 X1.207 Y-0.072 E2.71188
G1 X1.11 Y-.113 E2.7165
G1 X0.957 Y-.141 E2.72333
G1 X0.83 Y-.131 E2.72892
G1 X0.671 Y-0.072 E2.73637
G1 X0.502 Y0.044 E2.74537
G1 X0.324 Y0.227 E2.75658
G1 X-.426 Y1.244 E2.81205
G1 X-.612 Y1.339 E2.82122
G1 X-.674 Y1.333 E2.82396
G1 X-.727 Y1.314 E2.82643
G1 X-3.174 Y0.075 E2.94685
G1 X-3.292 Y-0.061 E2.95475
G1 X-3.309 Y-.164 E2.95934
G1 F1503.1 X-3.271 Y-.263 E2.96398
G1 X-2.543 Y-1.482 E3.02619
G1 F1500 X-1.876 Y-3.004 E3.09914
G1 X-1.769 Y-3.12 E3.10607
G1 X-1.691 Y-3.145 E3.10967
G1 X-1.514 Y-3.102 E3.11767
G1 X-.538 Y-2.386 E3.17081
G1 X-.494 Y-2.315 E3.17448
G1 X-.478 Y-2.246 E3.17759
G1 X-.485 Y-2.166 E3.18111
G1 X-.508 Y-2.107 E3.18389
G1 X-.678 Y-1.835 E3.19797
G1 F1420.1 X-.938 Y-1.366 E3.22284
G1 F1392.6 X-1.49 Y-.514 E3.27085
G1 F1440 X-1.058 Y-.296 E3.29298
G1 F1392.6 X-.503 Y-1.056 E3.33748
G1 F1390 X-.317 Y-1.221 E3.34926
G1 F1466.4 X-.113 Y-1.381 E3.3609
G1 F1500 X0.075 Y-1.508 E3.37086
G1 X0.263 Y-1.606 E3.38017
G1 X0.467 Y-1.684 E3.38976
G1 X0.669 Y-1.732 E3.39887
G1 X0.834 Y-1.753 E3.40618
G1 X1.055 Y-1.753 E3.41588
G1 X1.272 Y-1.722 E3.4255
G1 X1.438 Y-1.676 E3.43307
G1 X1.654 Y-1.584 E3.44337
G1 X1.908 Y-1.43 E3.45641
G1 X2.126 Y-1.248 E3.46888
G1 X2.316 Y-1.036 E3.48138
G1 X2.454 Y-.828 E3.49234
G1 X2.581 Y-.571 E3.50493
G1 X2.679 Y-.275 E3.51861
G1 X2.733 Y0.011 E3.53139
G1 X2.75 Y0.275 E3.54301
G1 X2.733 Y0.604 E3.55747
G1 X2.68 Y0.9 E3.57067
G1 X2.591 Y1.19 E3.58399
G1 X2.461 Y1.485 E3.59814
G1 X2.345 Y1.695 E3.60868
G1 X2.109 Y2.039 E3.62699
G1 X1.857 Y2.321 E3.6436
G1 X1.647 Y2.511 E3.65603
G1 X1.456 Y2.657 E3.66658
G1 X1.326 Y2.739 E3.67333
G1 X1.223 Y2.774 E3.67811
G1 X1.164 Y2.773 E3.6807
G0 F3000 X1.085 Y2.748
G0 X1.024 Y2.701
G0 X0.858 Y2.527
G1 F1800 E2.3807
G0 F3000 X0.351 Y3.007
G0 X1.675 Y5.152
G0 X1.934 Y5.953
G1 F1800 E3.6807
G1 F1500 X6.261 Y0.00 E4.0038
G1 X1.934 Y-5.952 E4.32687
G1 X-5.062 Y-3.678 E4.64984
G1 X-5.062 Y3.678 E4.97279
G1 X1.934 Y5.953 E5.29577
G0 F3000 X2.169 Y5.63
G1 F1800 E3.99577
G0 F3000 X1.675 Y5.152
G0 X1.289 Y3.732
;TYPE:SKIN
G1 F1800 E5.29577
G1 F1422.9 X1.32 Y3.706 E5.29764
G1 F1500 X1.778 Y3.555 E5.31881
G1 X1.935 Y3.464 E5.32678
G1 F1509.4 X2.19 Y3.273 E5.34068
G1 F1629 X2.491 Y2.965 E5.35809
G1 F1813.6 X2.829 Y2.564 E5.37714
G1 F1860.5 X3.081 Y2.199 E5.39284
G1 F1791 X3.281 Y1.866 E5.40712
G1 F1614.3 X3.489 Y1.457 E5.42584
G1 F1503.1 X3.605 Y1.058 E5.44404
G1 F1500 X3.669 Y0.643 E5.46248
G1 X3.685 Y0.218 E5.48115
G1 X3.668 Y-0.055 E5.49316
G1 X3.594 Y-.478 E5.51201
G1 F1496.9 X3.484 Y-.832 E5.52832
G1 F1457.5 X3.484 Y-.867 E5.5299
G1 F1285.7 X3.373 Y-1.234 E5.54954
G1 F1190.1 X3.12 Y-1.621 E5.57513
G1 F1186.2 X2.862 Y-1.933 E5.5976
G1 F1311.5 X2.812 Y-1.887 E5.60101
G1 F1500 X2.502 Y-2.155 E5.61901
G1 X2.123 Y-2.395 E5.6387
G1 X1.983 Y-2.465 E5.64557
G1 X1.718 Y-2.57 E5.65809
G1 X1.388 Y-2.652 E5.67302
G1 X1.138 Y-2.686 E5.68409
G1 X0.817 Y-2.689 E5.69819
G1 X0.388 Y-2.629 E5.7172
G1 X0.37 Y-2.679 E5.71954
G1 X0.269 Y-2.865 E5.72883
G1 X0.144 Y-3.026 E5.73778
G1 X-0.007 Y-3.165 E5.74679
G1 X-.96 Y-3.859 E5.79855
G1 X-1.027 Y-3.893 E5.80185
G1 X-1.17 Y-3.94 E5.80845
G1 X-.939 Y-4.032 E5.81937
G1 X1.576 Y-4.852 E5.93551
G1 X3.373 Y-2.381 E6.06965
G1 F1311.5 X3.325 Y-2.335 E6.07299
G1 F1186.2 X3.602 Y-1.97 E6.09843
G1 F1190.1 X3.901 Y-1.542 E6.12732
G1 F1313.9 X4.227 Y-1.206 E6.15078
G1 F1496.9 X5.106 Y0.00 E6.21644
G1 F1500 X3.918 Y1.632 E6.30506
G1 F1607.1 X3.647 Y2.06 E6.32582
G1 F1800 X3.138 Y2.79 E6.35838
G1 F1813.6 X2.793 Y3.24 E6.37897
G1 F1629 X2.502 Y3.583 E6.39715
G1 F1509.4 X1.576 Y4.853 E6.46573
G1 F1500 X1.212 Y4.734 E6.48254
G1 F1210.1 X0.858 Y4.5 E6.50563
G1 F1018.4 X0.36 Y4.339 E6.53948
G1 F1208.1 X-.11 Y4.301 E6.56518
G1 F1490.7 X-4.126 Y2.997 E6.75172
G1 F1500 X-4.125 Y1.253 E6.82829
G1 X-4.049 Y0.517 E6.86077
G1 X-3.644 Y0.878 E6.88459
G1 X-3.593 Y0.913 E6.88731
G1 X-1.156 Y2.147 E7.00723
G1 X-.982 Y2.219 E7.0155
G1 X-.898 Y2.242 E7.01933
G1 X-.586 Y2.278 E7.03311
G1 X-.427 Y2.533 E7.04631
G1 F1490.7 X0.373 Y3.376 E7.09765
G1 F1292.6 X0.566 Y3.611 E7.11314
G1 F1081.1 X0.612 Y3.683 E7.11835
G1 F1027.1 X0.767 Y3.746 E7.12907
G1 F1092.6 X0.998 Y3.809 E7.14351
G1 F1250 X1.289 Y3.732 E7.15937
G1 F1800 E5.85937
G0 F3000 X-3.884 Y2.224
G1 F1800 E7.15937
G1 F1500 X-2.998 Y3.111 E7.21441
G1 X-2.914 Y3.195
G0 F3000 X-1.991 Y3.438
G1 F1500 X-3.884 Y1.545 E7.33194
G0 F3000 X-3.548 Y1.203
G1 F1500 X-.984 Y3.766 E7.49111
G1 X-.9 Y3.85
G0 F3000 X-0.008 Y4.064
G1 F1500 X-2.172 Y1.9 E7.62547
G1 X-2.256 Y1.816
G0 F3000 X-.912 Y2.481
G1 F1500 X0.28 Y3.674 E7.69951
G1 X0.364 Y3.758
G0 F3000 X1.282 Y3.997
G1 F1500 X1.639 Y4.355 E7.7217
G0 F3000 X1.926 Y3.962
G1 F1500 X1.773 Y3.809 E7.7312
G1 F1800 E6.4312
G0 F3000 X3.927 Y1.211
G1 F1800 E7.7312
G1 F1500 X3.835 Y1.12 E7.73688
G0 F3000 X4.212 Y0.818
G1 F1500 X3.911 Y0.516 E7.7556
G0 F3000 X4.499 Y0.426
G1 F1500 X3.89 Y-.182 E7.79338
G0 F3000 X3.7 Y-1.05
G1 F1500 X4.784 Y0.033 E7.86066
G1 X4.868 Y0.117
G1 F1800 E6.56066
G0 F3000 X3.143 Y-2.286
G1 F1800 E7.86066
G1 F1500 X1.014 Y-4.415 E7.99284
G0 F3000 X0.503 Y-4.248
G1 F1500 X2.059 Y-2.692 E8.08945
G0 F3000 X1.146 Y-2.926
G1 F1500 X-0.008 Y-4.081 E8.16114
G0 F3000 X-.223 Y-3.617
G1 F1500 X-.519 Y-3.913 E8.17951
G1 F1800 E6.87951
G0 F3000 X2.558 Y-1.722
G0 X3.018 Y-1.132
G0 X3.296 Y-.449
G0 X3.391 Y0.286
G0 X3.306 Y1.033
G0 X2.899 Y2.015
G0 X2.323 Y2.76
G0 X1.815 Y3.187
G0 X1.056 Y3.651
G0 X-4.286 Y0.215
G0 X-2.736 Y-3.378
G1 F1800 E8.17951
G1 F1500 X-3.374 Y-1.92 E8.24939
G1 X-4.094 Y-.755 E8.30951
G1 X-4.109 Y-.799 E8.31155
G1 X-4.125 Y-2.094 E8.36841
G1 X-4.125 Y-2.998 E8.4081
G1 X-2.791 Y-3.44 E8.4698
G1 X-2.684 Y-3.455 E8.47454
G1 X-2.736 Y-3.378 E8.47862
G0 F3000 X-3.319 Y-2.64
G1 F1500 X-3.597 Y-2.918 E8.49588
G0 F3000 X-3.882 Y-2.525
G1 F1500 X-3.526 Y-2.168 E8.51802
G0 F3000 X-3.879 Y-1.842
G1 F1500 X-3.769 Y-1.733 E8.52482
M104 S200
G1 F1800 E7.22482
;MESH:NONMESH
G0 F600 X-3.769 Y-1.733 Z0.28
G0 F3000 X-3.723 Y0.052
G0 X-.477 Y1.698
G0 X0.82 Y0.52
;TIME_ELAPSED:12.510069
;LAYER:1
;TYPE:WALL-INNER
;MESH:D12_17mm.stl
G1 F1800 E8.52482
G1 F1553.2 X0.696 Y0.675 E8.52953
G1 F1699.8 X0.399 Y0.98 E8.53877
G1 F2149.3 X0.156 Y1.195 E8.54433
G1 F2717 X-0.035 Y1.402 E8.54816
G1 F2930.2 X-0.09 Y1.486 E8.54942
G1 F1800 E7.24942
G0 F6000 X-.333 Y2.234
G0 X1.081 Y3.667
G0 X1.449 Y3.502
G0 X1.279 Y3.251
G1 F1800 E8.54942
G1 F2100 X1.1 Y3.248 E8.55256
G1 X0.979 Y3.22 E8.55475
G1 X0.864 Y3.171 E8.55694
G1 X0.68 Y3.032 E8.56099
G1 X-0.064 Y2.249 E8.57996
G1 X-.162 Y2.095 E8.58316
G1 F2440.7 X-0.09 Y1.486 E8.59243
G1 X-.605 Y1.818 E8.60169
G1 F2100 X-.787 Y1.798 E8.6049
G1 X-.943 Y1.741 E8.60782
G1 X-3.39 Y0.502 E8.65599
G1 X-3.653 Y0.275 E8.66209
G1 F1732 X-3.874 Y0.001 E8.66958
G1 F1484.5 X-3.881 Y-.141 E8.67312
G1 X-3.874 Y-.283 E8.67665
G1 F1711.4 X-3.688 Y-.515 E8.68306
G1 F2069.8 X-2.97 Y-1.703 E8.70779
G1 F2100 X-2.315 Y-3.198 E8.73645
G1 F1942.2 X-2.066 Y-3.547 E8.74459
G1 F1774.6 X-2.016 Y-3.588 E8.74594
G1 F1759.2 X-1.892 Y-3.635 E8.74872
G1 X-1.764 Y-3.669 E8.75149
G1 F1819.5 X-1.609 Y-3.653 E8.75465
G1 F1992.1 X-1.231 Y-3.491 E8.76226
G1 F2100 X-.294 Y-2.81 E8.78261
G1 X-.181 Y-2.708 E8.78528
G1 X-.122 Y-2.633 E8.78696
G1 X-0.046 Y-2.492 E8.78977
G1 X-0.013 Y-2.38 E8.79182
G1 X0.001 Y-2.285 E8.79351
G1 X-0.003 Y-2.126 E8.7963
G1 X-0.019 Y-2.047 E8.79771
G1 X-0.042 Y-1.99 E8.79879
G1 X0.088 Y-2.054 E8.80134
G1 X0.354 Y-2.151 E8.80631
G1 X0.609 Y-2.209 E8.8109
G1 X0.828 Y-2.235 E8.81478
G1 X1.094 Y-2.233 E8.81945
G1 X1.401 Y-2.185 E8.8249
G1 X1.656 Y-2.108 E8.82958
G1 X1.9 Y-1.998 E8.83428
G1 X2.212 Y-1.803 E8.84074
G1 X2.483 Y-1.571 E8.84701
G1 X2.705 Y-1.319 E8.85291
G1 X2.902 Y-1.012 E8.85931
G1 X3.014 Y-.782 E8.8638
G1 X3.128 Y-.456 E8.86987
G1 X3.213 Y-0.021 E8.87765
G1 X3.231 Y0.328 E8.88379
G1 X3.217 Y0.6 E8.88857
G1 X3.141 Y1.037 E8.89636
G1 X3.032 Y1.382 E8.90272
G1 X2.898 Y1.685 E8.90854
G1 X2.755 Y1.946 E8.91376
G1 X2.614 Y2.168 E8.91838
G1 X2.361 Y2.484 E8.92549
G1 X2.07 Y2.784 E8.93283
G1 X1.818 Y2.988 E8.93852
G1 X1.606 Y3.131 E8.94301
G1 X1.279 Y3.251 E8.94913
G1 F1800 E7.64913
G0 F6000 X1.449 Y3.502
G0 X1.081 Y3.667
G0 X-4.285 Y0.214
G0 X-4.433 Y0.059
G0 X-4.552 Y0.059
G1 F1800 E8.94913
G1 F1732 X-4.653 Y0.592 E8.96068
G1 F2100 X-4.653 Y3.38 E9.00964
G1 X1.777 Y5.471 E9.12838
G1 X5.753 Y0.00 E9.24715
G1 X1.778 Y-5.47 E9.3659
G1 X-1.064 Y-4.546 E9.41838
G1 F1992.1 X-1.693 Y-4.318 E9.43077
G1 F1819.5 X-1.893 Y-4.229 E9.4352
G1 F1747 X-2.239 Y-4.116 E9.44289
G1 F1905.5 X-2.973 Y-3.925 E9.45757
G1 F2100 X-4.652 Y-3.38 E9.48857
G1 F2069.8 X-4.645 Y-.779 E9.53491
G1 F1711.4 X-4.552 Y-.341 E9.54456
G1 F1473.7 X-4.552 Y0.059 E9.55457
G1 F1800 E8.25457
G0 F6000 X-4.433 Y0.059
G0 X-4.35 Y0.146
G0 X0.625 Y3.29
G0 X1.168 Y2.772
;TYPE:WALL-OUTER
G1 F1800 E9.55457
G1 F1500 X1.089 Y2.747 E9.55602
G1 X1.028 Y2.7 E9.55738
G1 X0.305 Y1.942 E9.57577
G1 X0.272 Y1.891 E9.57684
G1 X0.276 Y1.662 E9.58086
G1 X0.372 Y1.578 E9.5831
G1 X0.67 Y1.41 E9.58911
G1 X0.885 Y1.259 E9.59372
G1 X1.091 Y1.079 E9.59853
G1 X1.192 Y0.968 E9.60116
G1 X1.275 Y0.857 E9.6036
G1 X1.344 Y0.744 E9.60592
G1 X1.41 Y0.571 E9.60917
G1 X1.429 Y0.475 E9.61089
G1 X1.436 Y0.293 E9.61409
G1 X1.409 Y0.169 E9.61632
G1 X1.377 Y0.094 E9.61775
G1 X1.314 Y0.005 E9.61966
G1 X1.211 Y-0.072 E9.62192
G1 X1.039 Y-.134 E9.62513
G1 X0.894 Y-.143 E9.62769
G1 X0.74 Y-.104 E9.63047
G1 X0.582 Y-0.018 E9.63363
G1 X0.416 Y0.125 E9.63748
G1 X0.325 Y0.226 E9.63987
G1 X-.424 Y1.243 E9.66205
G1 X-.613 Y1.338 E9.66576
G1 X-.674 Y1.332 E9.66684
G1 X-.726 Y1.313 E9.66781
G1 X-3.173 Y0.074 E9.71598
G1 X-3.261 Y-0.002 E9.71802
G1 X-3.301 Y-0.099 E9.71987
G1 X-3.301 Y-.183 E9.72134
G1 F1503.1 X-3.27 Y-.264 E9.72286
G1 X-2.542 Y-1.483 E9.74774
G1 F1500 X-1.875 Y-3.005 E9.77692
G1 X-1.785 Y-3.11 E9.77935
G1 X-1.73 Y-3.137 E9.78043
G1 X-1.64 Y-3.148 E9.78202
G1 X-1.513 Y-3.103 E9.78439
G1 X-.576 Y-2.422 E9.80473
G1 X-.518 Y-2.363 E9.80618
G1 X-.493 Y-2.316 E9.80712
G1 X-.477 Y-2.247 E9.80836
G1 X-.484 Y-2.167 E9.80977
G1 X-.507 Y-2.108 E9.81088
G1 X-.677 Y-1.836 E9.81652
G1 F1420.1 X-.937 Y-1.367 E9.82646
G1 F1392.6 X-1.489 Y-.515 E9.84567
G1 F1440 X-1.057 Y-.297 E9.85452
G1 F1392.6 X-.502 Y-1.057 E9.87232
G1 F1390 X-.316 Y-1.222 E9.87703
G1 F1466.4 X-.112 Y-1.382 E9.88169
G1 F1500 X0.076 Y-1.509 E9.88567
G1 X0.264 Y-1.607 E9.8894
G1 X0.468 Y-1.685 E9.89323
G1 X0.67 Y-1.733 E9.89688
G1 X0.835 Y-1.754 E9.8998
G1 X1.057 Y-1.754 E9.9037
G1 X1.273 Y-1.723 E9.90753
G1 X1.439 Y-1.677 E9.91055
G1 X1.655 Y-1.585 E9.91468
G1 X1.879 Y-1.452 E9.91925
G1 X2.127 Y-1.249 E9.92488
G1 X2.317 Y-1.037 E9.92988
G1 X2.47 Y-.802 E9.9348
G1 X2.582 Y-.572 E9.9393
G1 X2.68 Y-.277 E9.94476
G1 X2.734 Y0.01 E9.94988
G1 X2.751 Y0.274 E9.95453
G1 X2.734 Y0.603 E9.96031
G1 X2.681 Y0.899 E9.9656
G1 X2.592 Y1.189 E9.97092
G1 X2.462 Y1.484 E9.97658
G1 X2.35 Y1.688 E9.98067
G1 X2.224 Y1.885 E9.98478
G1 X1.967 Y2.205 E9.99199
G1 X1.734 Y2.438 E9.99777
G1 X1.567 Y2.576 E10.00158
G1 X1.337 Y2.733 E10.00647
G1 X1.228 Y2.773 E10.00851
G1 X1.168 Y2.772 E10.00956
G0 F6000 X1.089 Y2.747
G0 X1.028 Y2.7
G0 X0.862 Y2.526
G1 F1800 E8.70956
G0 F6000 X0.356 Y3.008
G0 X1.702 Y5.234
G0 X1.961 Y6.035
G1 F1800 E10.00956
G1 F1500 X6.347 Y0.00 E10.14058
G1 X1.961 Y-6.034 E10.27158
G1 X-5.132 Y-3.729 E10.40255
G1 X-5.133 Y3.729 E10.53352
G1 X1.961 Y6.035 E10.66452
G0 F6000 X2.196 Y5.712
G1 F1800 E9.36452
G0 F6000 X1.702 Y5.234
G0 X-4.285 Y0.214
G0 X-2.732 Y-3.386
;TYPE:SKIN
G1 F1800 E10.66452
G1 F1500 X-3.373 Y-1.921 E10.6926
G1 X-4.072 Y-.777 E10.71615
G1 X-4.134 Y-.716 E10.71767
G1 X-4.181 Y-.827 E10.71979
G1 X-4.194 Y-3.048 E10.7588
G1 X-2.854 Y-3.484 E10.78354
G1 X-2.642 Y-3.528 E10.78734
G1 X-2.732 Y-3.386 E10.7903
G1 F1800 E9.4903
G0 F6000 X-4.285 Y0.214
G0 X1.081 Y3.667
G0 X2.16 Y2.913
G0 X2.744 Y2.255
G0 X3.196 Y1.4
G0 X3.372 Y0.656
G0 X3.368 Y-0.085
G0 X2.868 Y-1.953
G1 F1800 E10.7903
G1 F1272.1 X2.807 Y-1.893 E10.79207
G1 F1500 X2.703 Y-1.992 E10.79459
G1 X2.504 Y-2.155 E10.79911
G1 X2.368 Y-2.251 E10.80203
G1 X2.141 Y-2.387 E10.80668
G1 X1.841 Y-2.525 E10.81248
G1 X1.682 Y-2.581 E10.81544
G1 X1.39 Y-2.653 E10.82072
G1 X1.143 Y-2.687 E10.8251
G1 X0.821 Y-2.69 E10.83075
G1 X0.389 Y-2.63 E10.83841
G1 X0.37 Y-2.681 E10.83937
G1 X0.268 Y-2.87 E10.84314
G1 X0.161 Y-3.013 E10.84628
G1 X-0.028 Y-3.184 E10.85075
G1 X-.959 Y-3.859 E10.87095
G1 X-1.228 Y-3.987 E10.87618
G1 X-.916 Y-4.114 E10.88209
G1 X1.603 Y-4.934 E10.92862
G1 X3.423 Y-2.431 E10.98296
G1 F1272.1 X3.358 Y-2.378 E10.9847
G1 F1123.2 X3.665 Y-1.972 E10.99664
