;FLAVOR:Marlin
;TIME:2003
;Filament used: 0.63243m
;Layer height: 0.08
;MINX:-9.914
;MINY:-11.425
;MINZ:0.2
;MAXX:9.914
;MAXY:11.437
;MAXZ:19
;Generated with Cura_SteamEngine 5.4.0
M82 ;absolute extrusion mode
M140 S0
M104 S200 T0
M104 S0 T1
M107
G90
G28
M132 X Y Z A B
G1 Z50.00 F400
G161 X Y F3300
M6 T0
M907 X100 Y100 Z40 A80 B20
M108 T0
G1 Z.20 F400
G92 E0
G92 E0
G1 F1800 E-1.3
;LAYER_COUNT:236
;LAYER:0
M106 S255
;MESH:D20_19mm.stl
G0 F3000 X-.316 Y-.549 Z0.2
;TYPE:WALL-INNER
G1 F1800 E0
G1 F988.7 X0.035 Y-.435 E0.02127
G1 F1126.4 X1.695 Y0.518 E0.11808
G0 F3000 X1.964 Y0.971
G1 F1297.7 X1.981 Y1.198 E0.12808
G1 X1.945 Y1.372 E0.13588
G1 X1.887 Y1.499 E0.14201
G1 X1.029 Y2.984 E0.2173
G1 X5.217 Y2.985 E0.40117
G1 X3.056 Y-.732 E0.58993
G1 X2.933 Y-.346 E0.60772
G1 X2.87 Y-.205 E0.6145
G1 X2.639 Y0.195 E0.63478
G1 X2.426 Y0.427 E0.64861
G1 X2.222 Y0.525 E0.65854
G1 F1211.9 X1.695 Y0.518 E0.68332
G1 X1.964 Y0.971 E0.70809
G1 F1800 E-0.59191
G0 F3000 X2.323 Y1.179
G0 X-.447 Y-.369
G0 X-.591 Y-.273
G0 X-1.048 Y0.48
G1 F1800 E0.70809
G1 F1092.8 X-1.119 Y0.612 E0.71591
G1 F1800 E-0.58409
G0 F3000 X-.591 Y-.273
G0 X-.447 Y-.369
G0 X-1.081 Y-.76
;TYPE:WALL-OUTER
G1 F1800 E0.71591
G1 F953.9 X-1.47 Y-.979 E0.74257
G1 F1800 E-0.55743
G0 F3000 X-2.282 Y-1.447
G0 X-3.23 Y0.357
G0 X-3.21 Y1.195
G0 X-2.835 Y1.951
G0 X-2.201 Y2.484
G0 X-.581 Y2.613
G0 X0.567 Y3.279
G0 X0.7 Y3.053
G0 X1.322 Y2.816
G0 X0.427 Y2.917
G1 F1800 E0.74257
G1 F1221.4 X0.27 Y2.856 E0.75042
G1 F1271.2 X-0.063 Y2.651 E0.76795
G1 F1297.7 X-.167 Y2.529 E0.77499
G1 X-.182 Y2.45 E0.77852
G1 X-.17 Y2.364 E0.78233
G1 F1328.2 X-0.024 Y2.125 E0.79435
G1 F1462.2 X0.183 Y1.831 E0.80836
G1 F1601.3 X0.45 Y1.379 E0.82703
G1 F1622.1 X0.103 Y1.18 E0.84108
G1 F1626.4 X0.014 Y1.367 E0.84834
G1 F1601.3 X-.141 Y1.604 E0.85841
G1 F1462.2 X-.333 Y1.833 E0.87006
G1 F1328.2 X-.518 Y1.967 E0.87986
G1 F1297.7 X-.76 Y2.065 E0.89132
G1 X-1.026 Y2.112 E0.90318
G1 X-1.35 Y2.092 E0.91743
G1 X-1.613 Y2.015 E0.92946
G1 X-1.877 Y1.886 E0.94236
G1 X-2.118 Y1.712 E0.95541
G1 X-2.32 Y1.504 E0.96814
G1 X-2.443 Y1.315 E0.97804
G1 X-2.553 Y1.009 E0.99232
G1 X-2.582 Y0.736 E1.00437
G1 X-2.563 Y0.505 E1.01455
G1 X-2.481 Y0.202 E1.02833
G1 X-2.338 Y-0.089 E1.04256
G1 X-2.057 Y-.5 E1.06442
G1 X-1.729 Y-.833 E1.08494
G1 F1253.3 X-1.686 Y-.887 E1.08808
G1 F1066.6 X-1.47 Y-.979 E1.10062
G1 X-1.554 Y-1.197 E1.1131
G1 F1253.3 X-1.531 Y-1.346 E1.11995
G1 F1297.7 X-.569 Y-3.018 E1.20464
G1 X-.44 Y-3.126 E1.21203
G1 X-.304 Y-3.132 E1.21801
G1 X-.24 Y-3.106 E1.22104
G1 X0.098 Y-2.91 E1.23819
G1 X0.161 Y-2.858 E1.24178
G1 X0.203 Y-2.786 E1.24544
G1 X0.217 Y-2.688 E1.24979
G1 X0.185 Y-2.582 E1.25465
G1 X-0.054 Y-2.168 E1.27563
G1 X1.742 Y-1.131 E1.36668
G1 X1.889 Y-1.602 E1.38835
G1 X1.975 Y-1.723 E1.39486
G1 X2.24 Y-1.738 E1.40652
G1 F1314.1 X2.603 Y-1.52 E1.42488
G1 F1336.7 X2.681 Y-1.451 E1.42931
G1 F1325.3 X2.713 Y-1.244 E1.43832
G1 F1303.1 X2.475 Y-.492 E1.4728
G1 F1297.7 X2.223 Y-0.045 E1.49533
G1 X2.152 Y0.033 E1.49996
G1 X2.084 Y0.065 E1.50326
G1 X1.913 Y0.053 E1.51079
G1 X-.524 Y-1.352 E1.63429
G1 X-.779 Y-.916 E1.65646
G1 F1279.1 X-.825 Y-.863 E1.65959
G1 F1126.4 X-.98 Y-.76 E1.669
G1 F985.6 X-1.081 Y-.76 E1.67484
G1 X-.999 Y-.692 E1.681
G1 F1126.4 X-.924 Y-.522 E1.6904
G1 F1279.1 X-.915 Y-.46 E1.69319
G1 F1297.7 X-.925 Y-.35 E1.69804
G1 X-.974 Y-.265 E1.70235
G1 X-1.194 Y-.105 E1.71429
G1 X-1.339 Y0.026 E1.72287
G1 X-1.461 Y0.164 E1.73095
G1 X-1.574 Y0.335 E1.73995
G1 X-1.63 Y0.449 E1.74553
G1 X-1.667 Y0.571 E1.75113
G1 X-1.675 Y0.666 E1.75531
G1 X-1.663 Y0.763 E1.7596
G1 X-1.636 Y0.834 E1.76294
G1 X-1.575 Y0.923 E1.76767
G1 X-1.504 Y0.993 E1.77205
G1 X-1.381 Y1.076 E1.77857
G1 X-1.265 Y1.132 E1.78422
G1 X-1.159 Y1.161 E1.78905
G1 X-1.061 Y1.168 E1.79336
G1 X-.976 Y1.152 E1.79716
G1 X-.887 Y1.116 E1.80137
G1 X-.803 Y1.055 E1.80593
G1 X-.713 Y0.96 E1.81168
G1 X-.645 Y0.859 E1.81702
G1 X-.516 Y0.558 E1.8314
G1 X-.453 Y0.198 E1.84744
G1 X-.429 Y0.149 E1.84984
G1 X-.361 Y0.079 E1.85412
G1 X-.252 Y0.039 E1.85922
G1 X-.143 Y0.052 E1.86404
G1 X1.401 Y0.94 E1.94224
G1 X1.497 Y1.082 E1.94976
G1 X1.503 Y1.158 E1.95311
G1 X1.491 Y1.216 E1.95571
G1 X0.604 Y2.759 E2.03385
G1 F1248.3 X0.427 Y2.917 E2.04468
G0 F3000 X0.27 Y2.856
G0 X0.073 Y2.735
G1 F1800 E0.74468
G0 F3000 X-0.075 Y2.989
G0 X-2.201 Y2.484
G0 X-2.835 Y1.951
G0 X-3.21 Y1.195
G0 X-3.23 Y0.357
G0 X-2.935 Y-.414
G0 X-.532 Y-3.538
G0 X0.727 Y-3.329
G0 X1.348 Y-2.212
G0 X1.687 Y-2.107
;TYPE:WALL-INNER
G1 F1800 E2.04468
G1 F1297.7 X2.238 Y-2.139 E2.06891
G1 X0.00 Y-5.986 E2.26431
G1 X-1.066 Y-4.153 E2.3574
G1 F1271.2 X-1.426 Y-3.513 E2.39031
G1 F1231 X-2.458 Y-1.734 E2.4855
G1 F1168.7 X-2.574 Y-1.488 E2.49876
G1 F1175.3 X-2.775 Y-1.189 E2.51622
G1 F1271.2 X-3.167 Y-.55 E2.54982
G1 F1297.7 X-3.413 Y-.108 E2.57203
G1 F1287 X-5.215 Y2.983 E2.73042
G1 F1297.7 X-2.191 Y2.984 E2.86318
G1 F1360.1 X-1.064 Y3.007 E2.91041
G1 F1409.3 X-.34 Y3 E2.93968
G1 F1387.3 X-.6 Y2.695 E2.95614
G1 X-.626 Y2.611 E2.95975
G1 X-.64 Y2.51 E2.96393
G1 X-.737 Y2.537 E2.96807
G1 F1399.8 X-.956 Y2.566 E2.97706
G1 F1422.2 X-1.109 Y2.572 E2.98319
G1 F1393.5 X-1.477 Y2.544 E2.99828
G1 F1345.4 X-1.703 Y2.486 E3.00816
G1 F1319.7 X-1.818 Y2.447 E3.01341
G1 F1303.1 X-2.047 Y2.341 E3.02444
G1 F1297.7 X-2.153 Y2.278 E3.02985
G1 X-2.364 Y2.13 E3.04117
G1 X-2.456 Y2.052 E3.04646
G1 X-2.626 Y1.883 E3.05699
G1 X-2.722 Y1.766 E3.06363
G1 X-2.848 Y1.573 E3.07375
G1 X-2.918 Y1.429 E3.08078
G1 X-2.992 Y1.223 E3.09039
G1 X-3.029 Y1.069 E3.09735
G1 X-3.057 Y0.846 E3.10721
G1 X-3.061 Y0.696 E3.1138
G1 X-3.041 Y0.465 E3.12398
G1 F1295 X-3.017 Y0.327 E3.13014
G1 F1281.7 X-2.936 Y0.034 E3.14366
G1 F1295 X-2.759 Y-.313 E3.16079
G1 F1271.2 X-2.377 Y-.883 E3.19155
G1 F1202.5 X-2.056 Y-1.24 E3.21429
G1 F1151.4 X-2.059 Y-1.326 E3.21855
G1 F1168.7 X-1.996 Y-1.517 E3.22835
G1 F1231 X-.994 Y-3.263 E3.32152
G1 F1271.2 X-.596 Y-3.58 E3.34433
G1 F1297.7 X-.19 Y-3.599 E3.36217
G1 X0.001 Y-3.522 E3.37121
G1 X0.339 Y-3.326 E3.38837
G1 X0.529 Y-3.168 E3.39922
G1 X0.615 Y-3.044 E3.40584
G1 X0.655 Y-2.953 E3.41021
G1 X0.697 Y-2.66 E3.4232
G1 X0.602 Y-2.344 E3.43769
G1 X1.491 Y-1.831 E3.48275
G1 X1.687 Y-2.107 E3.49761
G1 F1800 E2.19761
G0 F3000 X1.348 Y-2.212
G0 X0.616 Y-2.872
G0 X-.532 Y-3.538
G0 X-3.114 Y-0.042
G0 X-3.264 Y0.775
G0 X-3.063 Y1.596
G0 X-2.543 Y2.246
G0 X-1.832 Y2.659
G0 X-.581 Y2.613
G0 X0.567 Y3.279
G0 X1.336 Y2.851
G0 X0.488 Y3.437
;TYPE:WALL-OUTER
G1 F1800 E3.49761
G1 F1226.2 X1.011 Y3.464 E3.52194
G1 F1297.7 X6.052 Y3.465 E3.74326
G1 F1303.1 X3.279 Y-1.306 E3.98453
G1 F1331 X3.081 Y-1.664 E4.00204
G1 F1325.3 X2.737 Y-2.234 E4.03066
G1 F1297.7 X0.00 Y-6.942 E4.26975
G1 X-6.049 Y3.462 E4.79811
G1 X-.281 Y3.464 E5.05134
G1 F1226.2 X0.488 Y3.437 E5.0871
G0 F3000 X0.888 Y3.457
G1 F1800 E3.7871
G0 F3000 X1.322 Y2.816
G0 X2.686 Y0.803
;TYPE:SKIN
G1 F1800 E5.0871
G1 F1297.7 X3.005 Y0.466 E5.10747
G1 X3.115 Y0.282 E5.11688
G1 X4.421 Y2.528 E5.23095
G1 X1.82 Y2.527 E5.34514
G1 X2.292 Y1.709 E5.3866
G1 X2.377 Y1.519 E5.39574
G1 X2.436 Y1.239 E5.4083
G1 X2.417 Y0.936 E5.42163
G1 X2.686 Y0.803 E5.43481
G0 F3000 X2.933 Y0.897
G1 F1297.7 X3.556 Y1.52 E5.47349
G0 F3000 X3.645 Y2.287
G1 F1297.7 X2.663 Y1.306 E5.53443
G0 F3000 X2.501 Y1.822
G1 F1297.7 X2.965 Y2.286 E5.56324
G1 F1800 E4.26324
G0 F3000 X0.732 Y2.996
G0 X0.567 Y3.279
G0 X0.242 Y3.091
G0 X-3.048 Y2.261
G1 F1800 E5.56324
G1 F891.1 X-2.892 Y2.417 E5.57734
G1 X-4.229 Y2.417 E5.66282
G1 X-3.561 Y1.272 E5.74758
G1 X-3.534 Y1.384 E5.75494
G1 X-3.454 Y1.612 E5.77039
G1 X-3.319 Y1.887 E5.78998
G1 X-3.18 Y2.097 E5.80608
G1 X-3.048 Y2.261 E5.81954
G1 F1800 E4.51954
G0 F3000 X-3.227 Y0.774
G0 X-3.193 Y0.364
G0 X-2.901 Y-.394
G0 X-.678 Y-4.085
G0 X0.867 Y-3.52
G1 F1800 E5.81954
G1 F1108.4 X0.594 Y-3.766 E5.83843
G1 F1061.2 X0.258 Y-3.964 E5.85937
G1 F1057.6 X-0.068 Y-4.096 E5.87831
G1 X-.152 Y-4.103 E5.88285
G1 X-.512 Y-4.086 E5.90227
G1 X0.00 Y-4.968 E5.95721
G1 F1061.2 X0.662 Y-3.834 E6.02771
G1 F1118.3 X0.912 Y-3.459 E6.05067
G1 F1166.5 X0.867 Y-3.52 E6.05438
G0 F3000 X0.912 Y-3.459
G1 F1191 X1.029 Y-3.275 E6.06481
G1 X1.1 Y-3.135 E6.07231
G0 F3000 X1.108 Y-3.064
G1 F1204.8 X1.1 Y-3.135 E6.07569
G1 F1384.2 X1.4 Y-2.778 E6.09489
G1 F1692.7 X1.581 Y-2.471 E6.10688
G1 F1701.9 X1.447 Y-2.424 E6.11164
G1 X1.385 Y-2.354 E6.11477
G1 X1.071 Y-2.537 E6.12693
G1 X1.095 Y-2.637 E6.13038
G1 F1432 X1.108 Y-3.064 E6.14737
G0 F3000 X0.922 Y-3.209
M104 S200
G1 F1800 E4.84737
;MESH:NONMESH
G0 F600 X0.922 Y-3.209 Z0.28
G0 F3000 X0.936 Y-3.232
G0 X-.532 Y-3.538
G0 X-3.114 Y-0.042
G0 X-3.264 Y0.775
G0 X-3.063 Y1.596
G0 X-2.543 Y2.246
G0 X-1.832 Y2.659
G0 X-.581 Y2.613
G0 X0.567 Y3.279
G0 X1.902 Y0.967
G0 X-.307 Y-.562
G0 X-.316 Y-.548
;TIME_ELAPSED:11.211221
;LAYER:1
;TYPE:WALL-INNER
;MESH:D20_19mm.stl
G1 F1800 E6.14737
G1 F941.7 X0.035 Y-.434 E6.15588
G1 F1072.8 X1.695 Y0.519 E6.19461
G1 F1800 E4.89461
G0 F6000 X2.453 Y0.956
G0 X1.231 Y2.973
G0 X1.02 Y3.001
G1 F1800 E6.19461
G1 F1236 X0.815 Y3.143 E6.19898
G1 X5.489 Y3.142 E6.28107
G1 X3.119 Y-.932 E6.36384
G1 X2.933 Y-.345 E6.37465
G1 X2.87 Y-.203 E6.37738
G1 X2.639 Y0.197 E6.38549
G1 X2.441 Y0.418 E6.3907
G1 X2.245 Y0.519 E6.39457
G1 F1154.2 X1.695 Y0.519 E6.40492
G1 X1.97 Y0.996 E6.41527
G1 F1236 X1.979 Y1.217 E6.41915
G1 X1.942 Y1.379 E6.42207
G1 X1.887 Y1.498 E6.42438
G1 X1.02 Y3.001 E6.45485
G1 F1800 E5.15485
G0 F6000 X1.231 Y2.973
G0 X0.567 Y3.28
G0 X-.714 Y2.998
G0 X-.315 Y3.087
G1 F1800 E6.45485
G1 F1132.2 X-.619 Y2.751 E6.46353
G1 X-.663 Y2.624 E6.46611
G1 X-.672 Y2.559 E6.46737
G1 X-.734 Y2.576 E6.4686
G1 F1136.5 X-.953 Y2.606 E6.47282
G1 F1147.5 X-1.111 Y2.611 E6.47581
G1 F1145.3 X-1.333 Y2.601 E6.48002
G1 F1119.4 X-1.486 Y2.583 E6.48301
G1 F1132.2 X-1.707 Y2.506 E6.4875
G1 F1200.9 X-2.047 Y2.342 E6.49432
G1 F1236 X-2.154 Y2.279 E6.4965
G1 X-2.363 Y2.131 E6.501
G1 X-2.456 Y2.053 E6.50313
G1 X-2.626 Y1.884 E6.50734
G1 X-2.722 Y1.766 E6.51001
G1 X-2.848 Y1.572 E6.51407
G1 X-2.918 Y1.429 E6.51687
G1 X-2.992 Y1.223 E6.52071
G1 X-3.029 Y1.069 E6.52349
G1 X-3.057 Y0.846 E6.52744
G1 X-3.06 Y0.696 E6.53008
G1 F1181.8 X-3.037 Y0.319 E6.53701
G1 F1078.7 X-2.993 Y0.073 E6.54204
G1 F1051.9 X-2.793 Y-.333 E6.55138
G1 F1042.7 X-2.405 Y-.912 E6.56589
G1 F977.4 X-2.186 Y-1.159 E6.57322
G1 F943.2 X-2.096 Y-1.243 E6.57605
G1 X-2.095 Y-1.348 E6.57847
G1 F972.6 X-2.033 Y-1.531 E6.58278
G1 F1015.9 X-1.028 Y-3.282 E6.62592
G1 F1121.5 X-.604 Y-3.576 E6.63591
G1 F1236 X-.201 Y-3.6 E6.643
G1 X0.00 Y-3.522 E6.64678
G1 X0.338 Y-3.327 E6.65363
G1 X0.529 Y-3.168 E6.658
G1 X0.606 Y-3.055 E6.6604
G1 X0.655 Y-2.953 E6.66239
G1 X0.698 Y-2.685 E6.66715
G1 X0.602 Y-2.344 E6.67337
G1 X1.494 Y-1.83 E6.69145
G1 X1.714 Y-2.126 E6.69793
G1 X2.411 Y-2.15 E6.71018
G1 X0.00 Y-6.295 E6.79439
G1 X-1.179 Y-4.27 E6.83554
G1 F1121.5 X-1.527 Y-3.571 E6.85065
G1 F1015.9 X-2.565 Y-1.781 E6.89486
G1 F972.6 X-2.68 Y-1.54 E6.90082
G1 F990.4 X-2.971 Y-1.098 E6.91242
G1 F1059.4 X-3.268 Y-.609 E6.92414
G1 F1051.9 X-3.518 Y-.15 E6.93493
G1 F1123.6 X-3.795 Y0.23 E6.94401
G1 F1236 X-5.49 Y3.143 E7.0032
G1 F1228.3 X-1.974 Y3.139 E7.06533
G1 F1156.5 X-1.558 Y3.113 E7.07315
G1 F1125.7 X-1.064 Y3.126 E7.08268
G1 F1143.1 X-.257 Y3.12 E7.098
G1 F1132.2 X-.315 Y3.087 E7.09928
G1 F1800 E5.79928
G0 F6000 X-.714 Y2.998
G0 X0.567 Y3.28
G0 X1.902 Y0.967
G0 X-.594 Y-.692
G0 X-1.13 Y-.786
;TYPE:WALL-OUTER
G1 F1800 E7.09928
G1 F914.1 X-1.47 Y-.978 E7.10855
G1 F1800 E5.80855
G0 F6000 X-2.282 Y-1.446
G0 X-3.23 Y0.357
G0 X-3.21 Y1.195
G0 X-2.836 Y1.951
G0 X-2.202 Y2.485
G0 X0.567 Y3.28
G0 X1.231 Y2.973
G0 X0.449 Y2.944
G1 F1800 E7.10855
G1 F966.2 X0.396 Y2.946 E7.10974
G1 F1086.6 X-0.063 Y2.652 E7.12063
G1 F1236 X-.161 Y2.544 E7.12319
G1 X-.182 Y2.451 E7.12487
G1 X-.17 Y2.365 E7.12639
G1 F1265 X-0.024 Y2.126 E7.1312
G1 F1382.9 X0.164 Y1.861 E7.1363
G1 F1513.4 X0.45 Y1.381 E7.14431
G1 F1545 X0.103 Y1.18 E7.14995
G1 X0.024 Y1.348 E7.15255
G1 F1525.1 X-.141 Y1.605 E7.1569
G1 F1392.7 X-.333 Y1.834 E7.16156
G1 F1265 X-.513 Y1.966 E7.16539
G1 F1236 X-.76 Y2.066 E7.17007
G1 X-1.028 Y2.112 E7.17484
G1 X-1.351 Y2.092 E7.18053
G1 X-1.613 Y2.015 E7.18532
G1 X-1.877 Y1.887 E7.19047
G1 X-2.118 Y1.713 E7.19569
G1 X-2.32 Y1.504 E7.2008
G1 X-2.443 Y1.314 E7.20477
G1 X-2.553 Y1.009 E7.21047
G1 X-2.582 Y0.736 E7.21529
G1 X-2.563 Y0.506 E7.21934
G1 X-2.48 Y0.203 E7.22486
G1 X-2.338 Y-0.088 E7.23055
G1 X-2.057 Y-.5 E7.2393
G1 X-1.729 Y-.832 E7.2475
G1 F1191.3 X-1.686 Y-.888 E7.24879
G1 F1014.1 X-1.47 Y-.978 E7.25379
G1 X-1.555 Y-1.195 E7.25878
G1 F1191.3 X-1.531 Y-1.345 E7.26155
G1 F1236 X-.57 Y-3.017 E7.29542
G1 X-.442 Y-3.124 E7.29835
G1 X-.307 Y-3.132 E7.30072
G1 X-.24 Y-3.106 E7.30198
G1 X0.098 Y-2.911 E7.30884
G1 X0.161 Y-2.858 E7.31028
G1 X0.203 Y-2.786 E7.31175
G1 X0.218 Y-2.696 E7.31335
G1 X0.185 Y-2.582 E7.31543
G1 X-0.054 Y-2.168 E7.32383
G1 X1.743 Y-1.131 E7.36026
G1 X1.889 Y-1.601 E7.36891
G1 X1.985 Y-1.729 E7.37172
G1 X2.24 Y-1.737 E7.3762
G1 F1200.9 X2.718 Y-1.477 E7.38603
G1 X2.714 Y-1.243 E7.39026
G1 F1236 X2.454 Y-.443 E7.40503
G1 X2.223 Y-0.043 E7.41314
G1 X2.157 Y0.03 E7.41487
G1 X2.092 Y0.064 E7.41616
G1 X1.913 Y0.054 E7.41931
G1 X-.524 Y-1.351 E7.46871
G1 X-.783 Y-.911 E7.47768
G1 X-.828 Y-.869 E7.47876
G1 F1111 X-.979 Y-.771 E7.48227
G1 F979 X-1.076 Y-.772 E7.48442
G1 F935.8 X-1.13 Y-.786 E7.48572
G1 F963.1 X-1.004 Y-.68 E7.48943
G1 F1111 X-.929 Y-.518 E7.49292
G1 F1236 X-.914 Y-.459 E7.49399
G1 X-.924 Y-.348 E7.49594
G1 X-.973 Y-.264 E7.49765
G1 X-1.188 Y-.108 E7.50232
G1 X-1.344 Y0.032 E7.506
G1 X-1.461 Y0.164 E7.50909
G1 X-1.574 Y0.333 E7.51266
G1 X-1.63 Y0.45 E7.51494
G1 X-1.667 Y0.572 E7.51718
G1 X-1.676 Y0.67 E7.51891
G1 X-1.664 Y0.758 E7.52047
G1 X-1.632 Y0.843 E7.52206
G1 X-1.58 Y0.919 E7.52368
G1 X-1.504 Y0.993 E7.52554
G1 X-1.381 Y1.076 E7.52815
G1 X-1.265 Y1.132 E7.53041
G1 X-1.159 Y1.161 E7.53234
G1 X-1.061 Y1.168 E7.53407
G1 X-.976 Y1.152 E7.53559
G1 X-.886 Y1.116 E7.53729
G1 X-.803 Y1.055 E7.5391
G1 X-.714 Y0.96 E7.54138
G1 X-.646 Y0.86 E7.54351
G1 X-.516 Y0.558 E7.54928
G1 X-.454 Y0.2 E7.55566
G1 X-.429 Y0.15 E7.55664
G1 X-.361 Y0.08 E7.55836
G1 X-.252 Y0.04 E7.5604
G1 X-.143 Y0.053 E7.56232
G1 X1.401 Y0.94 E7.59359
G1 X1.499 Y1.09 E7.59674
G1 X1.502 Y1.165 E7.59806
G1 X1.49 Y1.219 E7.59903
G1 X0.604 Y2.761 E7.63026
G1 F1082.6 X0.449 Y2.944 E7.63507
G0 F6000 X0.396 Y2.946
G0 X0.104 Y2.759
G0 X0.502 Y3.555
G1 F1082.6 X1.102 Y3.623 E7.64718
G1 F1236 X5.986 Y3.622 E7.73295
G1 X6.131 Y3.508 E7.73619
G1 X6.155 Y3.334 E7.73927
G1 X3.447 Y-1.323 E7.83388
G1 F1161 X3.134 Y-1.802 E7.84457
G1 X2.852 Y-2.348 E7.85606
G1 F1236 X0.117 Y-7.049 E7.95157
G1 X0.00 Y-7.096 E7.95379
G1 X-.117 Y-7.049 E7.956
G1 X-6.155 Y3.334 E8.16693
G1 X-6.131 Y3.508 E8.17002
G1 X-5.986 Y3.623 E8.17327
G1 X-.324 Y3.622 E8.2727
G1 F1186.5 X0.067 Y3.602 E8.27986
G1 F1048.2 X0.396 Y3.557 E8.28674
G1 F966.2 X0.502 Y3.555 E8.28912
G0 F6000 X0.9 Y3.6
G1 F1800 E6.98912
G0 F6000 X1.231 Y2.973
G0 X2.428 Y1.299
;TYPE:SKIN
G1 F1800 E8.28912
G1 F1236 X2.433 Y1.234 E8.29026
G1 X2.419 Y0.94 E8.29543
G1 X2.708 Y0.787 E8.30117
G1 X3.008 Y0.461 E8.30895
G1 X3.207 Y0.127 E8.31578
G1 X4.693 Y2.685 E8.36773
G1 X1.729 Y2.685 E8.41979
G1 X2.292 Y1.709 E8.43957
G1 X2.374 Y1.529 E8.44305
G1 X2.428 Y1.299 E8.4472
G0 F6000 X2.638 Y1.434
G1 F1236 X3.3 Y0.772 E8.46364
G0 F6000 X3.551 Y1.2
G1 F1236 X2.306 Y2.445 E8.49456
G0 F6000 X2.985 Y2.445
G1 F1236 X3.8 Y1.629 E8.51481
G0 F6000 X4.05 Y2.059
G1 F1236 X3.664 Y2.445 E8.5244
G1 F1800 E7.2244
G0 F6000 X0.567 Y3.28
G0 X-2.658 Y2.482
G1 F1800 E8.5244
G1 F1236 X-2.359 Y2.686 E8.53075
G1 X-4.696 Y2.687 E8.57179
G1 X-3.516 Y0.665 E8.61291
G1 X-3.511 Y0.909 E8.61719
G1 X-3.478 Y1.151 E8.62148
G1 X-3.43 Y1.355 E8.62516
G1 X-3.341 Y1.6 E8.62974
G1 X-3.236 Y1.813 E8.63391
G1 X-3.111 Y2.008 E8.63798
G1 X-2.967 Y2.189 E8.64204
G1 X-2.776 Y2.381 E8.6468
G1 X-2.658 Y2.482 E8.64952
G0 F6000 X-3.384 Y2.027
G1 F1236 X-3.804 Y2.447 E8.65995
G0 F6000 X-3.989 Y1.953
G1 F1236 X-3.606 Y1.57 E8.66947
G1 F1800 E7.36947
G0 F6000 X-3.078 Y-0.027
G0 X-.679 Y-4.082
G0 X1.163 Y-3.02
G0 X1.467 Y-2.594
G0 X1.686 Y-2.526
G1 F1800 E8.66947
G1 F1354.5 X1.587 Y-2.522 E8.67105
G1 X1.472 Y-2.487 E8.67298
