;FLAVOR:Marlin
;TIME:1860
;Filament used: 0.677195m
;Layer height: 0.08
;MINX:-7.893
;MINY:-7.822
;MINZ:0.2
;MAXX:7.76
;MAXY:7.928
;MAXZ:15.96
;Generated with Cura_SteamEngine 5.4.0
M82 ;absolute extrusion mode
M140 S0
M104 S200 T0
M104 S0 T1
M107
G90
G28
M132 X Y Z A B
G1 Z50.00 F400
G161 X Y F3300
M6 T0
M907 X100 Y100 Z40 A80 B20
M108 T0
G1 Z.20 F400
G92 E0
G92 E0
G1 F1800 E-1.3
;LAYER_COUNT:198
;LAYER:0
M106 S255
;MESH:D6_16mm.stl
G0 F3000 X0.862 Y-.974 Z0.2
;TYPE:WALL-INNER
G1 F1800 E0
G1 F1500 X0.855 Y-1.178 E0.00896
G1 X0.828 Y-1.372 E0.01756
G1 X0.79 Y-1.523 E0.0244
G1 X0.734 Y-1.675 E0.03151
G1 X0.674 Y-1.792 E0.03728
G1 X0.614 Y-1.878 E0.04189
G1 X0.552 Y-1.944 E0.04586
G1 X0.471 Y-2.01 E0.05045
G1 X0.396 Y-2.054 E0.05427
G1 X0.324 Y-2.082 E0.05766
G1 X0.218 Y-2.105 E0.06242
G1 X0.106 Y-2.113 E0.06735
G1 X-0.066 Y-2.092 E0.07496
G1 X-.188 Y-2.042 E0.08075
G1 X-.293 Y-1.958 E0.08665
G1 X-.366 Y-1.857 E0.09212
G1 X-.422 Y-1.704 E0.09927
G1 X-.443 Y-1.512 E0.10775
G1 X-.42 Y-1.286 E0.11773
G1 X-.393 Y-1.182 E0.12244
G1 X-.318 Y-1.021 E0.13024
G1 X-.203 Y-.88 E0.13823
G1 X-0.081 Y-.818 E0.14424
G1 X-0.015 Y-.803 E0.14721
G1 X0.163 Y-.8 E0.15503
G1 X0.436 Y-.837 E0.16712
G1 X0.654 Y-.893 E0.177
G1 X0.862 Y-.974 E0.1868
G0 F3000 X1.328 Y-.675
;TYPE:WALL-OUTER
G1 F1500 X1.343 Y-1.02 E0.20196
G1 X1.335 Y-1.199 E0.20983
G1 X1.3 Y-1.465 E0.22161
G1 X1.249 Y-1.665 E0.23067
G1 X1.174 Y-1.868 E0.24017
G1 X1.087 Y-2.038 E0.24856
G1 X0.99 Y-2.18 E0.25611
G1 X0.88 Y-2.296 E0.26312
G1 X0.744 Y-2.407 E0.27083
G1 X0.605 Y-2.488 E0.27789
G1 X0.464 Y-2.543 E0.28454
G1 X0.288 Y-2.581 E0.29244
G1 X0.108 Y-2.595 E0.30037
G1 X-0.043 Y-2.585 E0.30701
G1 X-.187 Y-2.558 E0.31345
G1 X-.315 Y-2.515 E0.31937
G1 X-.431 Y-2.458 E0.32505
G1 X-.533 Y-2.388 E0.33048
G1 X-.639 Y-2.292 E0.33676
G1 X-.718 Y-2.199 E0.34212
G1 X-.789 Y-2.086 E0.34798
G1 X-.843 Y-1.969 E0.35363
G1 X-.889 Y-1.819 E0.36052
G1 X-.914 Y-1.684 E0.36655
G1 X-.924 Y-1.514 E0.37403
G1 X-.914 Y-1.341 E0.38163
G1 X-.89 Y-1.186 E0.38852
G1 X-.849 Y-1.032 E0.39552
G1 X-.793 Y-.889 E0.40226
G1 X-.724 Y-.764 E0.40853
G1 X-.639 Y-.645 E0.41495
G1 X-.545 Y-.545 E0.42097
G1 X-.454 Y-.472 E0.42609
G1 X-.329 Y-.4 E0.43243
G1 X-.225 Y-.358 E0.43735
G1 X-0.088 Y-.327 E0.44352
G1 X0.052 Y-.316 E0.44968
G1 X0.203 Y-.321 E0.45632
G1 X0.528 Y-.365 E0.47072
G1 X0.797 Y-.434 E0.48291
G1 X1.028 Y-.52 E0.49373
G1 X1.328 Y-.675 E0.50856
G0 F3000 X1.343 Y-1.02
G0 X1.341 Y-1.075
G0 X0.425 Y-1.262
;TYPE:SKIN
G1 F1832.1 X0.367 Y-1.246 E0.51072
G1 X0.046 Y-1.214 E0.52231
G1 X-0.003 Y-1.318 E0.52645
G1 X-0.029 Y-1.513 E0.53352
G1 X-0.02 Y-1.603 E0.53677
G1 X0.019 Y-1.682 E0.53994
G1 X0.112 Y-1.697 E0.54332
G1 X0.22 Y-1.682 E0.54724
G1 X0.293 Y-1.614 E0.55083
G1 X0.354 Y-1.513 E0.55507
G1 X0.394 Y-1.402 E0.55931
G1 X0.425 Y-1.262 E0.56446
G0 F3000 X0.216 Y-1.412
G1 F1800 E-0.73554
G0 F3000 X0.195 Y-.539
G0 X-0.065 Y1.691
G0 X0.346 Y5.356
G0 X0.158 Y5.164
;TYPE:WALL-INNER
G1 F1800 E0.56446
G1 F1500 X-0.001 Y5.212 E0.57176
G1 X-.124 Y5.222 E0.57717
G1 X-.251 Y5.212 E0.58277
G1 X-.408 Y5.166 E0.58995
G1 X-2.174 Y4.417 E0.67417
G1 X-2.359 Y4.302 E0.68373
G1 X-2.489 Y4.156 E0.69231
G1 X-2.568 Y4.004 E0.69984
G1 X-2.602 Y3.878 E0.70556
G1 X-2.618 Y3.688 E0.71394
G1 X-2.608 Y3.562 E0.71949
G1 X-2.551 Y3.384 E0.72769
G1 X-2.467 Y3.245 E0.73482
G1 X-2.399 Y3.169 E0.7393
G1 X-2.323 Y3.106 E0.74363
G1 X-1.576 Y2.595 E0.78337
G1 X-1.279 Y2.375 E0.79959
G1 X-.794 Y1.983 E0.82697
G1 X-.952 Y1.965 E0.83395
G1 X-1.258 Y1.901 E0.84768
G1 X-1.679 Y1.756 E0.86723
G1 X-2.085 Y1.536 E0.8875
G1 X-2.4 Y1.298 E0.90484
G1 X-2.659 Y1.046 E0.9207
G1 X-2.92 Y0.706 E0.93952
G1 X-3.122 Y0.354 E0.95734
G1 X-3.279 Y-0.022 E0.97523
G1 X-3.391 Y-.42 E0.99338
G1 X-3.457 Y-.842 E1.01213
G1 X-3.476 Y-1.193 E1.02756
G1 X-3.448 Y-1.688 E1.04933
G1 X-3.434 Y-1.792 E1.05394
G1 X-3.35 Y-2.183 E1.07149
G1 X-3.194 Y-2.639 E1.09265
G1 X-2.973 Y-3.076 E1.11415
G1 X-2.641 Y-3.546 E1.13942
G1 X-2.307 Y-3.896 E1.16066
G1 X-2.008 Y-4.142 E1.17766
G1 X-1.598 Y-4.405 E1.19904
G1 X-1.156 Y-4.616 E1.22054
G1 X-.677 Y-4.774 E1.24269
G1 X-.176 Y-4.874 E1.26512
G1 X0.387 Y-4.911 E1.28989
G1 X0.826 Y-4.884 E1.3092
G1 X1.292 Y-4.797 E1.33001
G1 X1.725 Y-4.653 E1.35005
G1 X1.822 Y-4.611 E1.35469
G1 X2.238 Y-4.385 E1.37547
G1 X2.59 Y-4.123 E1.39474
G1 X2.858 Y-3.869 E1.41095
G1 X2.927 Y-3.793 E1.41545
G1 X3.2 Y-3.438 E1.43512
G1 X3.428 Y-3.046 E1.45502
G1 X3.612 Y-2.609 E1.47584
G1 X3.725 Y-2.221 E1.49358
G1 X3.819 Y-1.666 E1.5183
G1 X3.842 Y-1.152 E1.54089
G1 X3.82 Y-.678 E1.56172
G1 X3.742 Y-.114 E1.58672
G1 X3.601 Y0.46 E1.61267
G1 X3.423 Y0.973 E1.63651
G1 X3.196 Y1.483 E1.66101
G1 X2.923 Y1.987 E1.68618
G1 X2.601 Y2.493 E1.71251
G1 X2.243 Y2.985 E1.73922
G1 X1.834 Y3.491 E1.76779
G1 X1.39 Y3.989 E1.79708
G1 X0.898 Y4.506 E1.82841
G1 X0.38 Y5.016 E1.86033
G1 X0.158 Y5.164 E1.87204
G1 F1800 E0.57204
G0 F3000 X0.346 Y5.356
G0 X7.09 Y7.09
G0 X7.28 Y7.28
G1 F1800 E1.87204
G1 F1500 X7.28 Y-7.28 E2.51128
G1 X-7.279 Y-7.279 E3.15047
G1 X-7.28 Y7.28 E3.78965
G1 X7.28 Y7.28 E4.42889
G0 F3000 X7.76 Y7.76
;TYPE:WALL-OUTER
G1 F1500 X7.76 Y-7.76 E5.11027
G1 X-7.759 Y-7.759 E5.7916
G1 X-7.76 Y7.76 E6.47294
G1 X7.76 Y7.76 E7.15432
G0 F3000 X7.76 Y7.36
G1 F1800 E5.85432
G0 F3000 X7.09 Y7.09
G0 X-.373 Y5.418
G0 X-0.084 Y4.739
G1 F1800 E7.15432
G1 F1500 X-.168 Y4.739 E7.15801
G1 X-.22 Y4.724 E7.16039
G1 X-1.986 Y3.975 E7.2446
G1 X-2.048 Y3.936 E7.24782
G1 X-2.091 Y3.888 E7.25065
G1 X-2.129 Y3.795 E7.25506
G1 X-2.135 Y3.646 E7.26161
G1 X-2.116 Y3.586 E7.26437
G1 X-2.088 Y3.54 E7.26673
G1 X-2.034 Y3.489 E7.27
G1 X-1.289 Y2.981 E7.30958
G1 X-.946 Y2.724 E7.3284
G1 X-.376 Y2.257 E7.36075
G1 X-0.074 Y1.981 E7.37871
G1 X0.169 Y1.735 E7.39389
G1 X0.383 Y1.497 E7.40795
G1 X0.515 Y1.334 E7.41716
G1 X0.44 Y1.363 E7.42069
G1 X0.077 Y1.465 E7.43724
G1 X-0.097 Y1.496 E7.445
G1 X-.497 Y1.52 E7.46259
G1 X-.854 Y1.495 E7.4783
G1 X-1.16 Y1.431 E7.49203
G1 X-1.495 Y1.312 E7.50764
G1 X-1.802 Y1.148 E7.52292
G1 X-2.067 Y0.952 E7.53739
G1 X-2.301 Y0.726 E7.55167
G1 X-2.507 Y0.461 E7.56641
G1 X-2.682 Y0.163 E7.58158
G1 X-2.819 Y-.158 E7.5969
G1 X-2.917 Y-.499 E7.61248
G1 X-2.977 Y-.868 E7.62889
G1 X-2.996 Y-1.248 E7.6456
G1 X-2.964 Y-1.691 E7.6651
G1 X-2.872 Y-2.112 E7.68402
G1 X-2.742 Y-2.479 E7.70111
G1 X-2.548 Y-2.853 E7.71961
G1 X-2.289 Y-3.219 E7.73929
G1 X-2.002 Y-3.525 E7.75771
G1 X-1.678 Y-3.789 E7.77606
G1 X-1.344 Y-3.998 E7.79336
G1 X-.926 Y-4.191 E7.81357
G1 X-.504 Y-4.323 E7.83298
G1 X-0.066 Y-4.404 E7.85254
G1 X0.403 Y-4.431 E7.87316
G1 X0.825 Y-4.401 E7.89174
G1 X1.197 Y-4.326 E7.9084
G1 X1.6 Y-4.185 E7.92714
G1 X1.957 Y-3.996 E7.94488
G1 X2.26 Y-3.775 E7.96134
G1 X2.528 Y-3.521 E7.97755
G1 X2.771 Y-3.217 E7.99464
G1 X2.988 Y-2.855 E8.01317
G1 X3.151 Y-2.475 E8.03132
G1 X3.27 Y-2.059 E8.05032
G1 X3.339 Y-1.641 E8.06892
G1 X3.362 Y-1.174 E8.08945
G1 X3.338 Y-.677 E8.11129
G1 X3.266 Y-.182 E8.13325
G1 X3.154 Y0.283 E8.15425
G1 X2.983 Y0.78 E8.17733
G1 X2.773 Y1.256 E8.20017
G1 X2.517 Y1.731 E8.22386
G1 X2.213 Y2.211 E8.2488
G1 X1.87 Y2.683 E8.27442
G1 X1.475 Y3.172 E8.30202
G1 X1.042 Y3.658 E8.3306
G1 X0.561 Y4.164 E8.36125
G1 X0.043 Y4.674 E8.39316
G1 X-0.031 Y4.723 E8.39706
G1 X-0.084 Y4.739 E8.39949
G0 F3000 X-.168 Y4.739
G0 X-.22 Y4.724
G0 X-.461 Y4.622
G1 F1800 E7.09949
G0 F3000 X-.734 Y5.265
G0 X-0.084 Y5.482
G0 X6.824 Y6.824
;TYPE:SKIN
G1 F1800 E8.39949
G1 F1500 X-6.824 Y6.824 E8.99868
G1 X-6.822 Y-6.822 E9.59779
G1 X6.824 Y-6.824 E10.19689
G1 X6.824 Y6.824 E10.79609
G1 F1800 E9.49609
G0 F3000 X0.314 Y5.592
G1 F1800 E10.79609
G1 F1500 X0.38 Y5.561 E10.79929
G1 X0.666 Y5.37 E10.81439
G1 X1.216 Y4.834 E10.8481
G1 X1.722 Y4.302 E10.88034
G1 X2.172 Y3.799 E10.90997
G1 X2.639 Y3.22 E10.94263
G1 X2.974 Y2.759 E10.96765
G1 X3.319 Y2.215 E10.99593
G1 X3.598 Y1.697 E11.02176
G1 X3.838 Y1.162 E11.0475
G1 X4.059 Y0.521 E11.07727
G1 X4.193 Y-0.04 E11.10259
G1 X4.274 Y-.636 E11.129
G1 X4.298 Y-1.135 E11.15093
G1 X4.273 Y-1.709 E11.17616
G1 X4.193 Y-2.22 E11.19886
G1 X4.053 Y-2.729 E11.22204
G1 X3.792 Y-3.341 E11.25125
G1 X3.597 Y-3.668 E11.26797
G1 X3.285 Y-4.077 E11.29055
G1 X3.182 Y-4.19 E11.29726
G1 X2.809 Y-4.535 E11.31957
G1 X2.503 Y-4.758 E11.33619
G1 X2.37 Y-4.84 E11.34305
G1 X2.002 Y-5.031 E11.36126
G1 X1.524 Y-5.206 E11.3836
G1 X1.009 Y-5.318 E11.40674
G1 X0.873 Y-5.337 E11.41277
G1 X0.311 Y-5.366 E11.43748
G1 X-.233 Y-5.327 E11.46142
G1 X-.682 Y-5.242 E11.48149
G1 X-1.211 Y-5.084 E11.50572
G1 X-1.824 Y-4.802 E11.53535
G1 X-2.172 Y-4.587 E11.55331
G1 X-2.592 Y-4.25 E11.57695
G1 X-2.703 Y-4.149 E11.58354
G1 X-2.978 Y-3.854 E11.60124
G1 X-3.079 Y-3.728 E11.60833
G1 X-3.368 Y-3.304 E11.63086
G1 X-3.556 Y-2.952 E11.64838
G1 X-3.62 Y-2.801 E11.65558
G1 X-3.79 Y-2.297 E11.67893
G1 X-3.874 Y-1.913 E11.69619
G1 X-3.903 Y-1.734 E11.70415
G1 X-3.932 Y-1.245 E11.72566
G1 X-3.911 Y-.802 E11.74513
G1 X-3.833 Y-.303 E11.7673
G1 X-3.665 Y0.249 E11.79264
G1 X-3.485 Y0.648 E11.81185
G1 X-3.241 Y1.044 E11.83228
G1 X-3.015 Y1.333 E11.84838
G1 X-2.708 Y1.636 E11.86732
G1 X-2.344 Y1.911 E11.88735
G1 X-2.225 Y1.987 E11.89355
G1 X-1.876 Y2.169 E11.91083
G1 X-1.803 Y2.196 E11.91425
G1 X-2.595 Y2.738 E11.95638
G1 X-2.708 Y2.834 E11.96289
G1 X-2.861 Y3.014 E11.97326
G1 X-2.967 Y3.192 E11.98236
G1 X-3.059 Y3.501 E11.99651
G1 X-3.073 Y3.711 E12.00575
G1 X-3.052 Y3.944 E12.01602
G1 X-3.006 Y4.135 E12.02465
G1 X-2.882 Y4.387 E12.03698
G1 X-2.68 Y4.626 E12.05072
G1 X-2.626 Y4.671 E12.0538
G1 X-2.377 Y4.824 E12.06663
G1 X-.593 Y5.584 E12.15177
G1 X-.354 Y5.654 E12.1627
G1 X-.146 Y5.677 E12.17189
G1 X0.057 Y5.663 E12.18082
G1 X0.314 Y5.592 E12.19253
G1 F1800 E10.89253
G0 F3000 X-6.583 Y6.313
G1 F1800 E12.19253
G1 F1500 X-6.313 Y6.583 E12.20929
G0 F3000 X-5.634 Y6.583
G1 F1500 X-6.583 Y5.634 E12.26822
G0 F3000 X-6.583 Y4.956
G1 F1500 X-4.956 Y6.583 E12.36923
G0 F3000 X-4.277 Y6.583
G1 F1500 X-6.583 Y4.277 E12.51241
G0 F3000 X-6.583 Y3.598
G1 F1500 X-3.598 Y6.583 E12.69775
G0 F3000 X-2.919 Y6.583
G1 F1500 X-6.583 Y2.919 E12.92524
G0 F3000 X-6.583 Y2.24
G1 F1500 X-2.24 Y6.583 E13.19489
G0 F3000 X-1.561 Y6.583
G1 F1500 X-6.583 Y1.562 E13.50667
G0 F3000 X-6.583 Y0.883
G1 F1500 X-3.216 Y4.25 E13.71572
G0 F3000 X-3.297 Y3.49
G1 F1500 X-6.583 Y0.205 E13.91971
G0 F3000 X-6.583 Y-.473
G1 F1500 X-3.121 Y2.987 E14.1346
G0 F3000 X-2.818 Y2.612
G1 F1500 X-6.583 Y-1.152 E14.36834
G0 F3000 X-6.583 Y-1.831
G1 F1500 X-2.421 Y2.329 E14.62669
G1 X-2.337 Y2.413
G1 F1800 E13.32669
G0 F3000 X-3.953 Y0.119
G1 F1800 E14.62669
G1 F1500 X-6.582 Y-2.509 E14.78989
G0 F3000 X-6.582 Y-3.188
G1 F1500 X-4.141 Y-.747 E14.94145
G0 F3000 X-4.159 Y-1.443
G1 F1500 X-6.582 Y-3.867 E15.09192
G0 F3000 X-6.582 Y-4.545
G1 F1500 X-4.088 Y-2.052 E15.24674
G0 F3000 X-3.944 Y-2.587
G1 F1500 X-6.582 Y-5.224 E15.4105
G0 F3000 X-6.582 Y-5.903
G1 F1500 X-3.758 Y-3.079 E15.58583
G0 F3000 X-3.513 Y-3.513
G1 F1500 X-6.581 Y-6.581 E15.77632
G0 F3000 X-5.902 Y-6.581
G1 F1500 X-3.235 Y-3.913 E15.94194
G0 F3000 X-2.913 Y-4.271
G1 F1500 X-5.224 Y-6.581 E16.0854
G0 F3000 X-4.545 Y-6.581
G1 F1500 X-2.552 Y-4.589 E16.20911
G0 F3000 X-2.16 Y-4.875
G1 F1500 X-3.866 Y-6.581 E16.31504
G0 F3000 X-3.187 Y-6.581
G1 F1500 X-1.718 Y-5.113 E16.40621
G0 F3000 X-1.249 Y-5.322
G1 F1500 X-2.508 Y-6.581 E16.48438
G0 F3000 X-1.83 Y-6.582
G1 F1500 X-.726 Y-5.477 E16.55296
G0 F3000 X-.143 Y-5.574
G1 F1500 X-1.151 Y-6.582 E16.61555
G0 F3000 X-.473 Y-6.582
G1 F1500 X0.514 Y-5.595 E16.67683
G0 F3000 X1.283 Y-5.504
G1 F1500 X0.205 Y-6.582 E16.74376
G0 F3000 X0.884 Y-6.582
G1 F1500 X2.342 Y-5.124 E16.83428
G1 X2.426 Y-5.04
G0 F3000 X2.241 Y-6.583
G1 F1500 X6.583 Y-2.24 E17.1039
G0 F3000 X6.583 Y-1.561
G1 F1500 X1.563 Y-6.582 E17.41562
G1 X1.479 Y-6.666
G0 F3000 X2.92 Y-6.583
G1 F1500 X6.583 Y-2.919 E17.64308
G0 F3000 X6.583 Y-3.598
G1 F1500 X3.599 Y-6.583 E17.82839
G0 F3000 X4.277 Y-6.583
G1 F1500 X6.583 Y-4.277 E17.97156
G0 F3000 X6.583 Y-4.956
G1 F1500 X4.956 Y-6.583 E18.07258
G0 F3000 X5.635 Y-6.583
G1 F1500 X6.583 Y-5.634 E18.13147
G0 F3000 X6.583 Y-6.313
G1 F1500 X6.314 Y-6.583 E18.14821
G1 F1800 E16.84821
G0 F3000 X3.978 Y-3.488
G1 F1800 E18.14821
G1 F1500 X6.583 Y-.883 E18.30995
G0 F3000 X6.583 Y-.204
G1 F1500 X4.391 Y-2.397 E18.44608
G0 F3000 X4.515 Y-1.593
G1 F1500 X6.583 Y0.474 E18.57445
G0 F3000 X6.583 Y1.153
G1 F1500 X4.526 Y-.904 E18.70216
G0 F3000 X4.467 Y-.284
G1 F1500 X6.583 Y1.832 E18.83354
G0 F3000 X6.583 Y2.51
G1 F1500 X4.36 Y0.287 E18.97157
G0 F3000 X4.21 Y0.816
G1 F1500 X6.583 Y3.189 E19.1189
G0 F3000 X6.583 Y3.868
G1 F1500 X4.03 Y1.315 E19.27741
G0 F3000 X3.819 Y1.783
G1 F1500 X6.583 Y4.547 E19.44903
G0 F3000 X6.583 Y5.226
G1 F1500 X3.582 Y2.225 E19.63536
G0 F3000 X3.326 Y2.648
G1 F1500 X6.583 Y5.905 E19.83758
G0 F3000 X6.583 Y6.583
G1 F1500 X3.053 Y3.053 E20.05675
G0 F3000 X2.764 Y3.443
G1 F1500 X5.905 Y6.583 E20.25174
G0 F3000 X5.226 Y6.583
G1 F1500 X2.462 Y3.819 E20.42336
G0 F3000 X2.147 Y4.183
G1 F1500 X4.547 Y6.583 E20.57237
G0 F3000 X3.868 Y6.583
G1 F1500 X1.825 Y4.54 E20.69922
G0 F3000 X1.494 Y4.888
G1 F1500 X3.189 Y6.583 E20.80446
G0 F3000 X2.51 Y6.583
G1 F1500 X1.156 Y5.229 E20.88852
G0 F3000 X0.809 Y5.561
G1 F1500 X1.832 Y6.583 E20.95201
G0 F3000 X1.153 Y6.583
G1 F1500 X0.388 Y5.818 E20.99951
G0 F3000 X-.2 Y5.908
G1 F1500 X0.474 Y6.583 E21.04139
G0 F3000 X-.204 Y6.583
G1 F1500 X-1.205 Y5.582 E21.10354
G1 X-1.289 Y5.498
G0 F3000 X-.883 Y6.583
G1 F1500 X-2.39 Y5.076 E21.19711
G1 X-2.474 Y4.992
M104 S200
G1 F1800 E19.89711
;MESH:NONMESH
G0 F600 X-2.474 Y4.992 Z0.28
G0 F3000 X-2.454 Y3.494
G0 X-.1 Y1.71
G0 X0.051 Y-.535
G0 X0.657 Y-1.107
G0 X0.862 Y-.974
;TIME_ELAPSED:24.856725
;LAYER:1
;TYPE:WALL-INNER
;MESH:D6_16mm.stl
G1 F1800 E21.19711
G1 F2100 X0.855 Y-1.178 E21.20069
G1 X0.828 Y-1.372 E21.20413
G1 X0.79 Y-1.523 E21.20686
G1 X0.734 Y-1.675 E21.20971
G1 X0.674 Y-1.792 E21.21202
G1 X0.614 Y-1.878 E21.21386
G1 X0.552 Y-1.944 E21.21545
G1 X0.471 Y-2.01 E21.21728
G1 X0.396 Y-2.054 E21.21881
G1 X0.324 Y-2.082 E21.22017
G1 X0.218 Y-2.105 E21.22207
G1 X0.106 Y-2.113 E21.22405
G1 X-0.066 Y-2.092 E21.22709
G1 X-.188 Y-2.042 E21.2294
G1 X-.293 Y-1.958 E21.23177
G1 X-.366 Y-1.857 E21.23395
G1 X-.422 Y-1.704 E21.23681
G1 X-.443 Y-1.512 E21.24021
G1 X-.42 Y-1.286 E21.2442
G1 X-.393 Y-1.182 E21.24608
G1 X-.318 Y-1.021 E21.2492
G1 X-.203 Y-.88 E21.2524
G1 X-0.081 Y-.818 E21.2548
G1 X-0.015 Y-.803 E21.25599
G1 X0.163 Y-.8 E21.25912
G1 X0.436 Y-.837 E21.26395
G1 X0.67 Y-.9 E21.26821
G1 X0.862 Y-.974 E21.27182
G0 F6000 X1.328 Y-.675
;TYPE:WALL-OUTER
G1 F1500 X1.343 Y-1.019 E21.27787
G1 X1.335 Y-1.199 E21.28103
G1 X1.3 Y-1.465 E21.28575
G1 X1.249 Y-1.665 E21.28937
G1 X1.174 Y-1.868 E21.29317
G1 X1.087 Y-2.038 E21.29652
G1 X0.99 Y-2.18 E21.29954
G1 X0.88 Y-2.296 E21.30235
G1 X0.744 Y-2.407 E21.30543
G1 X0.605 Y-2.488 E21.30826
G1 X0.464 Y-2.543 E21.31092
G1 X0.288 Y-2.581 E21.31408
G1 X0.108 Y-2.595 E21.31725
G1 X-0.043 Y-2.585 E21.31991
G1 X-.187 Y-2.558 E21.32248
G1 X-.315 Y-2.515 E21.32485
G1 X-.431 Y-2.458 E21.32712
G1 X-.533 Y-2.388 E21.32929
G1 X-.639 Y-2.292 E21.33181
G1 X-.718 Y-2.199 E21.33395
G1 X-.789 Y-2.086 E21.33629
G1 X-.843 Y-1.969 E21.33856
G1 X-.889 Y-1.819 E21.34131
G1 X-.914 Y-1.684 E21.34372
G1 X-.924 Y-1.514 E21.34671
G1 X-.914 Y-1.341 E21.34976
G1 X-.89 Y-1.186 E21.35251
G1 X-.849 Y-1.032 E21.35531
G1 X-.793 Y-.889 E21.35801
G1 X-.724 Y-.764 E21.36051
G1 X-.639 Y-.645 E21.36308
G1 X-.545 Y-.545 E21.36549
G1 X-.454 Y-.472 E21.36754
G1 X-.329 Y-.4 E21.37007
G1 X-.225 Y-.358 E21.37204
G1 X-0.088 Y-.327 E21.37451
G1 X0.052 Y-.316 E21.37698
G1 X0.203 Y-.321 E21.37963
G1 X0.528 Y-.365 E21.38539
G1 X0.796 Y-.434 E21.39025
G1 X1.028 Y-.521 E21.3946
G1 X1.328 Y-.675 E21.40052
G0 F6000 X1.343 Y-1.019
G0 X1.341 Y-1.075
G0 X0.425 Y-1.262
;TYPE:SKIN
G1 F1832.1 X0.365 Y-1.246 E21.40141
G1 X0.046 Y-1.214 E21.40602
G1 X-0.003 Y-1.318 E21.40768
G1 X-0.029 Y-1.513 E21.41051
G1 X-0.02 Y-1.603 E21.41181
G1 X0.019 Y-1.682 E21.41307
G1 X0.112 Y-1.697 E21.41443
G1 X0.22 Y-1.682 E21.416
G1 X0.293 Y-1.614 E21.41743
G1 X0.354 Y-1.513 E21.41913
G1 X0.394 Y-1.402 E21.42082
G1 X0.425 Y-1.262 E21.42288
G0 F6000 X0.216 Y-1.412
G1 F1800 E20.12288
G0 F6000 X0.195 Y-.539
