;FLAVOR:Marlin
;TIME:1742
;Filament used: 0.545766m
;Layer height: 0.08
;MINX:-10.531
;MINY:-9.478
;MINZ:0.2
;MAXX:10.531
;MAXY:9.477
;MAXZ:15.96
;Generated with Cura_SteamEngine 5.4.0
M82 ;absolute extrusion mode
M140 S0
M104 S200 T0
M104 S0 T1
M107
G90
G28
M132 X Y Z A B
G1 Z50.00 F400
G161 X Y F3300
M6 T0
M907 X100 Y100 Z40 A80 B20
M108 T0
G1 Z.20 F400
G92 E0
G92 E0
G1 F1800 E-1.3
;LAYER_COUNT:198
;LAYER:0
M106 S255
;MESH:D10_16mm.stl
G0 F3000 X1.725 Y2.3 Z0.2
;TYPE:WALL-INNER
G1 F1800 E0
G1 F1119.8 X1.777 Y2.24 E0.00467
G1 X1.746 Y2.134 E0.01116
G1 X1.684 Y2.004 E0.01964
G1 X1.587 Y1.845 E0.03059
G1 X1.301 Y1.465 E0.05856
G1 X0.593 Y0.708 E0.11952
G1 X0.391 Y0.527 E0.13547
G1 X0.234 Y0.403 E0.14724
G1 X0.103 Y0.319 E0.15639
G1 X-0.003 Y0.28 E0.16303
G1 X-0.067 Y0.317 E0.16738
G1 X-.144 Y0.379 E0.17319
G1 X-.23 Y0.473 E0.18069
G1 X-.222 Y0.557 E0.18565
G1 X-.163 Y0.713 E0.19546
G1 X-0.085 Y0.852 E0.20483
G1 X0.024 Y1.014 E0.21632
G1 F1116.3 X0.166 Y1.195 E0.22989
G1 F1107.7 X0.596 Y1.666 E0.2678
G1 F1109.4 X0.817 Y1.89 E0.28648
G1 F1118 X1.02 Y2.068 E0.30239
G1 F1119.8 X1.194 Y2.2 E0.31523
G1 X1.344 Y2.294 E0.32564
G1 X1.467 Y2.352 E0.33364
G1 X1.54 Y2.375 E0.33814
G1 X1.604 Y2.378 E0.34191
G1 X1.651 Y2.357 E0.34494
G1 X1.725 Y2.3 E0.35043
G0 F3000 X2.101 Y2.718
;TYPE:WALL-OUTER
G1 F1500 X2.195 Y2.621 E0.35636
G1 X2.268 Y2.517 E0.36194
G1 X2.313 Y2.418 E0.36671
G1 X2.338 Y2.309 E0.37162
G1 X2.339 Y2.198 E0.3765
G1 X2.316 Y2.068 E0.38229
G1 X2.266 Y1.921 E0.38911
G1 X2.178 Y1.737 E0.39806
G1 X2.062 Y1.545 E0.40791
G1 X1.91 Y1.33 E0.41947
G1 X1.712 Y1.083 E0.43337
G1 X1.239 Y0.559 E0.46436
G1 X0.968 Y0.29 E0.48113
G1 X0.76 Y0.104 E0.49338
G1 X0.56 Y-0.056 E0.50462
G1 X0.367 Y-.178 E0.51465
G1 X0.23 Y-.238 E0.52121
G1 X0.093 Y-.277 E0.52747
G1 X-0.031 Y-.287 E0.53293
G1 X-.136 Y-.271 E0.53759
G1 X-.253 Y-.226 E0.54309
G1 X-.38 Y-.151 E0.54957
G1 X-.52 Y-0.038 E0.55747
G1 X-.626 Y0.069 E0.56408
G1 X-.707 Y0.184 E0.57026
G1 X-.76 Y0.294 E0.57562
G1 X-.785 Y0.392 E0.58006
G1 X-.794 Y0.514 E0.58543
G1 X-.777 Y0.652 E0.59153
G1 X-.74 Y0.789 E0.59776
G1 X-.67 Y0.958 E0.60579
G1 X-.571 Y1.135 E0.6147
G1 X-.439 Y1.333 E0.62515
G1 X-.264 Y1.56 E0.63773
G1 X-0.069 Y1.787 E0.65087
G1 X0.198 Y2.07 E0.66795
G1 X0.428 Y2.296 E0.68211
G1 X0.656 Y2.497 E0.69545
G1 X0.875 Y2.663 E0.70752
G1 X1.075 Y2.787 E0.71785
G1 X1.263 Y2.876 E0.72698
G1 X1.423 Y2.926 E0.73434
G1 X1.57 Y2.943 E0.74084
G1 X1.707 Y2.933 E0.74687
G1 X1.84 Y2.893 E0.75296
G1 X1.96 Y2.828 E0.75896
G1 X2.101 Y2.718 E0.76681
G0 F3000 X2.195 Y2.621
G0 X2.268 Y2.517
G0 X2.313 Y2.418
G0 X2.319 Y2.389
G1 F1800 E-0.53319
G0 F3000 X1.643 Y2.196
G0 X1.844 Y2.642
G0 X3.167 Y3.931
G0 X3.199 Y4.573
G0 X3.066 Y4.399
;TYPE:WALL-INNER
G1 F1800 E0.76681
G1 F1500 X2.729 Y4.649 E0.78523
G1 X2.414 Y4.82 E0.80096
G1 X2.081 Y4.943 E0.81655
G1 X1.965 Y4.975 E0.82183
G1 X1.566 Y5.04 E0.83958
G1 X1.154 Y5.046 E0.85767
G1 X0.758 Y4.992 E0.87522
G1 X0.35 Y4.883 E0.89376
G1 X-0.026 Y4.73 E0.91158
G1 X-.407 Y4.521 E0.93066
G1 X-.775 Y4.264 E0.95037
G1 X-1.068 Y4.014 E0.96728
G1 X-1.393 Y3.692 E0.98736
G1 X-1.749 Y3.265 E1.01177
G1 X-2.085 Y2.766 E1.03818
G1 F1551.7 X-2.322 Y2.282 E1.06105
G1 F1662.8 X-2.475 Y1.854 E1.07905
G1 F1739.1 X-2.604 Y1.373 E1.09791
G1 F1686.2 X-2.694 Y0.815 E1.11999
G1 F1558.4 X-2.712 Y0.434 E1.1361
G1 F1500 X-2.706 Y0.333 E1.14055
G1 X-2.654 Y-0.038 E1.15699
G1 X-2.63 Y-.146 E1.16185
G1 X-2.524 Y-.497 E1.17795
G1 X-2.485 Y-.598 E1.1827
G1 X-2.329 Y-.926 E1.19865
G1 X-2.271 Y-1.026 E1.20372
G1 X-2.059 Y-1.333 E1.2201
G1 X-1.987 Y-1.422 E1.22513
G1 X-1.717 Y-1.704 E1.24227
G1 X-1.389 Y-1.968 E1.26075
G1 X-1.029 Y-2.179 E1.27907
G1 X-.648 Y-2.328 E1.29703
G1 X-.537 Y-2.36 E1.30211
G1 X-.133 Y-2.429 E1.3201
G1 X0.279 Y-2.436 E1.33819
G1 X0.671 Y-2.385 E1.35555
G1 X0.987 Y-2.303 E1.36988
G1 F1366.2 X1.006 Y-2.347 E1.37219
G1 F1272.1 X1.431 Y-2.174 E1.39594
G1 F1269.8 X1.859 Y-1.948 E1.42104
G1 F1218.3 X2.175 Y-1.749 E1.44123
G1 F1326 X2.498 Y-1.394 E1.46507
G1 F1500 X2.827 Y-1.063 E1.48556
G1 X3.244 Y-.56 E1.51424
G1 X3.517 Y-.166 E1.53529
G1 X3.781 Y0.303 E1.55892
G1 X4.005 Y0.84 E1.58446
G1 X4.139 Y1.332 E1.60685
G1 X4.194 Y1.714 E1.62379
G1 X4.2 Y2.187 E1.64456
G1 X4.191 Y2.298 E1.64945
G1 X4.133 Y2.661 E1.66559
G1 X4.105 Y2.771 E1.67057
G1 X3.964 Y3.194 E1.69015
G1 X3.73 Y3.634 E1.71203
G1 X3.43 Y4.033 E1.73394
G1 X3.066 Y4.399 E1.75661
G1 F1800 E0.45661
G0 F3000 X3.199 Y4.573
G0 X3.888 Y3.685
G0 X4.121 Y3.234
G0 X4.278 Y2.754
G0 X4.358 Y2.258
G0 X4.287 Y1.25
G0 X3.94 Y0.263
G0 X3.349 Y-.685
G0 X2.764 Y-1.339
G0 X1.126 Y-2.727
G0 X1.199 Y-2.885
G1 F1800 E1.75661
G1 F1366.2 X1.21 Y-2.929 E1.75879
G1 F1500 X-4.71 Y-5.663 E2.04508
G1 X-3.204 Y0.493 E2.32332
G1 F1621.6 X-2.996 Y1.488 E2.3646
G1 F1743.3 X-2.872 Y1.979 E2.38373
G1 F1603.6 X-2.599 Y2.963 E2.42567
G1 F1500 X-1.541 Y7.285 E2.62102
G1 X-.665 Y7.644 E2.66258
G1 X5.072 Y6.277 E2.92151
G1 X7.89 Y0.157 E3.21731
G1 X2.963 Y-2.119 E3.45559
G1 F1326 X2.474 Y-2.275 E3.48108
G1 F1237.1 X1.663 Y-2.679 E3.52931
G1 F1272.1 X1.199 Y-2.885 E3.5556
G1 F1800 E2.2556
G0 F3000 X1.126 Y-2.727
G0 X2.625 Y-1.493
G0 X3.349 Y-.685
G0 X3.94 Y0.263
G0 X4.287 Y1.25
G0 X4.358 Y2.258
G0 X4.278 Y2.754
G0 X4.121 Y3.234
G0 X3.819 Y3.725
G0 X3.199 Y4.572
G0 X2.773 Y4.019
;TYPE:WALL-OUTER
G1 F1800 E3.5556
G1 F1500 X2.525 Y4.21 E3.56934
G1 X2.224 Y4.379 E3.58449
G1 X1.877 Y4.503 E3.60067
G1 X1.55 Y4.56 E3.61524
G1 X1.21 Y4.569 E3.63018
G1 X0.907 Y4.533 E3.64357
G1 X0.526 Y4.436 E3.66083
G1 X0.2 Y4.306 E3.67624
G1 X-.136 Y4.125 E3.693
G1 X-.463 Y3.9 E3.71042
G1 X-.756 Y3.649 E3.72736
G1 X-1.069 Y3.335 E3.74683
G1 X-1.379 Y2.959 E3.76822
G1 X-1.65 Y2.559 E3.78944
G1 X-1.89 Y2.112 E3.81171
G1 X-2.057 Y1.689 E3.83168
G1 X-2.172 Y1.267 E3.85088
G1 X-2.23 Y0.848 E3.86945
G1 X-2.23 Y0.4 E3.88912
G1 X-2.17 Y-0.007 E3.90718
G1 X-2.051 Y-.392 E3.92487
G1 X-1.876 Y-.753 E3.94249
G1 X-1.64 Y-1.09 E3.96055
G1 X-1.344 Y-1.395 E3.97921
G1 X-1.065 Y-1.608 E3.99462
G1 X-.759 Y-1.776 E4.00994
G1 X-.482 Y-1.878 E4.0229
G1 X-.152 Y-1.945 E4.03769
G1 X0.224 Y-1.959 E4.05421
G1 X0.52 Y-1.925 E4.06729
G1 X0.87 Y-1.838 E4.08312
G1 X1.213 Y-1.703 E4.0993
G1 X1.537 Y-1.528 E4.11547
G1 X1.866 Y-1.302 E4.133
G1 X2.2 Y-1.016 E4.1523
G1 X2.484 Y-.727 E4.17009
G1 X2.849 Y-.286 E4.19522
G1 X3.122 Y0.108 E4.21627
G1 X3.374 Y0.561 E4.23903
G1 X3.543 Y0.972 E4.25854
G1 X3.66 Y1.385 E4.27738
G1 X3.721 Y1.818 E4.29658
G1 X3.717 Y2.222 E4.31432
G1 X3.659 Y2.585 E4.33046
G1 X3.537 Y2.967 E4.34806
G1 X3.331 Y3.366 E4.36778
G1 X3.107 Y3.674 E4.3845
G1 X2.773 Y4.019 E4.40558
G0 F3000 X2.525 Y4.21
G0 X2.45 Y4.252
G1 F1800 E3.10558
G0 F3000 X2.789 Y4.865
G0 X-1.362 Y7.139
G0 X-1.785 Y7.701
G1 F1800 E4.40558
G1 F1500 X-1.619 Y7.778 E4.41361
G1 X-.705 Y8.147 E4.45689
G1 X5.41 Y6.69 E4.73287
G1 X8.527 Y-0.078 E5.06001
G1 X-5.413 Y-6.517 E5.73416
G1 X-1.947 Y7.643 E6.37418
G1 X-1.86 Y7.681 E6.37835
G1 X-1.785 Y7.701 E6.38176
G0 F3000 X-1.619 Y7.778
G0 X-1.417 Y7.859
G1 F1800 E5.08176
G0 F3000 X-1.167 Y7.202
G0 X-2.803 Y1.378
G0 X-2.871 Y0.373
G0 X-2.658 Y-.605
G0 X-2.439 Y-1.061
G0 X-2.15 Y-1.481
G0 X-1.57 Y-2.009
G0 X-.182 Y-2.883
;TYPE:SKIN
G1 F1800 E6.38176
G1 F1500 X-.642 Y-2.804 E6.40225
G1 X-1.078 Y-2.658 E6.42243
G1 X-1.237 Y-2.584 E6.43013
G1 X-1.519 Y-2.427 E6.4443
G1 X-1.657 Y-2.337 E6.45154
G1 X-1.921 Y-2.133 E6.46618
G1 X-2.038 Y-2.027 E6.47312
G1 X-2.314 Y-1.74 E6.4906
G1 X-2.437 Y-1.59 E6.49911
G1 X-2.649 Y-1.281 E6.51557
G1 X-2.746 Y-1.117 E6.52393
G1 X-2.897 Y-.8 E6.53935
G1 X-2.986 Y-.543 E6.55129
G1 X-4.041 Y-4.852 E6.74605
G1 X0.199 Y-2.895 E6.95108
G1 X-.182 Y-2.883 E6.96781
G1 F1800 E5.66781
G0 F3000 X1.489 Y-2.281
G0 X2.265 Y-1.802
G0 X2.968 Y-1.144
G0 X3.673 Y-.216
G0 X4.145 Y0.753
G0 X4.359 Y1.755
G0 X4.358 Y2.258
G0 X4.278 Y2.754
G0 X4.234 Y2.889
G0 X3.455 Y4.662
G1 F1800 E6.96781
G1 F1500 X3.776 Y4.331 E6.98806
G1 X4.109 Y3.893 E7.01221
G1 X4.38 Y3.387 E7.03741
G1 X4.543 Y2.901 E7.05992
G1 X4.585 Y2.729 E7.06769
G1 X4.643 Y2.366 E7.08383
G1 X4.656 Y2.198 E7.09123
G1 X4.658 Y1.825 E7.1076
G1 X4.647 Y1.661 E7.11482
G1 X4.583 Y1.221 E7.13434
G1 X4.409 Y0.615 E7.16202
G1 X4.231 Y0.182 E7.18257
G1 X3.938 Y-.353 E7.20935
G1 X3.62 Y-.82 E7.23416
G1 X3.171 Y-1.365 E7.26516
G1 X2.887 Y-1.65 E7.28283
G1 X7.285 Y0.38 E7.49549
G1 X4.749 Y5.883 E7.76151
G1 X-.629 Y7.165 E8.00424
G1 X-1.151 Y6.955 E8.02894
G1 X-1.933 Y3.76 E8.17335
G1 X-1.776 Y3.951 E8.18421
G1 X-1.422 Y4.308 E8.20628
G1 X-.99 Y4.674 E8.23114
G1 X-.577 Y4.951 E8.25297
G1 X-.135 Y5.182 E8.27487
G1 X0.178 Y5.306 E8.28965
G1 X0.637 Y5.433 E8.31056
G1 X1.094 Y5.498 E8.33082
G1 X1.26 Y5.506 E8.33812
G1 X1.603 Y5.495 E8.35318
G1 X1.758 Y5.477 E8.36004
G1 X2.127 Y5.404 E8.37655
G1 X2.598 Y5.236 E8.3985
G1 X2.971 Y5.036 E8.41709
G1 X3.083 Y4.962 E8.42298
G1 X3.455 Y4.662 E8.44396
G1 F1800 E7.14396
G0 F3000 X-1.03 Y6.436
G1 F1800 E8.44396
G1 F1500 X-.564 Y6.902 E8.47289
G0 F3000 X-0.016 Y6.771
G1 F1500 X-1.251 Y5.536 E8.54957
G0 F3000 X-1.472 Y4.637
G1 F1500 X0.531 Y6.64 E8.67394
G0 F3000 X1.079 Y6.51
G1 F1500 X0.101 Y5.531 E8.73469
G0 F3000 X0.97 Y5.722
G1 F1500 X1.627 Y6.379 E8.77548
G0 F3000 X2.175 Y6.248
G1 F1500 X1.655 Y5.728 E8.80777
G0 F3000 X2.225 Y5.62
G1 F1500 X2.723 Y6.117 E8.83866
G0 F3000 X3.271 Y5.987
G1 F1500 X2.725 Y5.44 E8.87259
G0 F3000 X3.159 Y5.195
G1 F1500 X3.82 Y5.856 E8.91363
G0 F3000 X4.368 Y5.726
G1 F1500 X3.542 Y4.9 E8.96492
G0 F3000 X3.882 Y4.561
G1 F1500 X4.712 Y5.39 E9.01642
G0 F3000 X4.925 Y4.925
G1 F1500 X4.186 Y4.186 E9.0623
G0 F3000 X4.446 Y3.768
G1 F1500 X5.139 Y4.461 E9.10533
G0 F3000 X5.354 Y3.996
G1 F1500 X4.659 Y3.302 E9.14845
G0 F3000 X4.817 Y2.781
G1 F1500 X5.568 Y3.531 E9.19505
G0 F3000 X5.782 Y3.066
G1 F1500 X4.895 Y2.18 E9.25009
G0 F3000 X4.859 Y1.465
G1 F1500 X5.996 Y2.602 E9.32068
G0 F3000 X6.21 Y2.137
G1 F1500 X4.641 Y0.568 E9.4181
G1 X4.557 Y0.484
G0 F3000 X5.039 Y-.391
G1 F1500 X6.639 Y1.208 E9.51741
G0 F3000 X6.852 Y0.743
G1 F1500 X6.299 Y0.19 E9.55175
G0 F3000 X6.424 Y1.673
G1 F1500 X3.863 Y-.888 E9.71076
G1 X3.779 Y-.972
G1 F1800 E8.41076
G0 F3000 X1.489 Y-2.281
G0 X1.254 Y-2.357
G0 X-.929 Y-2.965
G1 F1800 E9.71076
G1 F1500 X-1.269 Y-3.306 E9.7319
G0 F3000 X-1.407 Y-2.764
G1 F1500 X-2.532 Y-3.889 E9.80175
G1 X-2.616 Y-3.973
G0 F3000 X-3.451 Y-3.451
G1 F1500 X-2.201 Y-2.201 E9.87936
G0 F3000 X-2.531 Y-1.852
G1 F1500 X-3.231 Y-2.552 E9.92282
G0 F3000 X-3.011 Y-1.653
G1 F1500 X-2.817 Y-1.459 E9.93487
G0 F3000 X-1.828 Y-2.507
G1 F1500 X-3.672 Y-4.35 E10.04933
G1 X-3.756 Y-4.434
M104 S200
G1 F1800 E8.74933
;MESH:NONMESH
G0 F600 X-3.756 Y-4.434 Z0.28
G0 F3000 X-2.058 Y-.839
G0 X-.513 Y0.287
G0 X1.629 Y2.2
G0 X1.721 Y2.302
;TIME_ELAPSED:14.135323
;LAYER:1
;TYPE:WALL-INNER
;MESH:D10_16mm.stl
G1 F1800 E10.04933
G1 F1565.2 X1.778 Y2.236 E10.05138
G1 X1.736 Y2.107 E10.05458
G1 X1.685 Y2.001 E10.05735
G1 X1.588 Y1.843 E10.06172
G1 X1.451 Y1.651 E10.06728
G1 X1.289 Y1.446 E10.07343
G1 X0.595 Y0.706 E10.09734
G1 X0.393 Y0.526 E10.10371
G1 X0.235 Y0.4 E10.10847
G1 X0.103 Y0.317 E10.11215
G1 X-0.001 Y0.277 E10.11477
G1 X-.141 Y0.377 E10.11882
G1 X-.191 Y0.428 E10.12051
G1 X-.226 Y0.483 E10.12204
G1 X-.224 Y0.537 E10.12332
G1 X-.161 Y0.709 E10.12763
G1 X-0.083 Y0.849 E10.13141
G1 X0.028 Y1.013 E10.13607
G1 F1560.4 X0.157 Y1.181 E10.14108
G1 F1543.6 X0.351 Y1.399 E10.14805
G1 F1548.4 X0.835 Y1.9 E10.16464
G1 F1565.2 X1.036 Y2.075 E10.17092
G1 X1.216 Y2.209 E10.17621
G1 X1.363 Y2.298 E10.18026
G1 X1.475 Y2.35 E10.18317
G1 X1.548 Y2.372 E10.18497
G1 X1.605 Y2.376 E10.18631
G1 X1.721 Y2.302 E10.18955
G0 F6000 X2.098 Y2.721
;TYPE:WALL-OUTER
G1 F1500 X2.199 Y2.615 E10.19212
G1 X2.27 Y2.513 E10.19431
G1 X2.315 Y2.415 E10.1962
G1 X2.34 Y2.306 E10.19816
G1 X2.341 Y2.195 E10.20011
G1 X2.318 Y2.065 E10.20243
G1 X2.268 Y1.919 E10.20514
G1 X2.18 Y1.734 E10.20874
G1 X2.064 Y1.542 E10.21268
G1 X1.892 Y1.302 E10.21787
G1 X1.727 Y1.093 E10.22254
G1 X1.486 Y0.818 E10.22896
G1 X1.219 Y0.533 E10.23582
G1 X0.971 Y0.288 E10.24194
G1 X0.762 Y0.101 E10.24687
G1 X0.561 Y-0.059 E10.25138
G1 X0.368 Y-.181 E10.25539
G1 X0.231 Y-.241 E10.25802
G1 X0.095 Y-.28 E10.2605
G1 X-0.029 Y-.29 E10.26269
G1 X-.134 Y-.274 E10.26455
G1 X-.251 Y-.229 E10.26675
G1 X-.377 Y-.154 E10.26933
G1 X-.518 Y-0.041 E10.2725
G1 X-.624 Y0.066 E10.27515
G1 X-.705 Y0.181 E10.27762
G1 X-.758 Y0.291 E10.27976
G1 X-.783 Y0.389 E10.28154
G1 X-.792 Y0.512 E10.2837
G1 X-.776 Y0.644 E10.28604
G1 X-.738 Y0.787 E10.28864
G1 X-.668 Y0.955 E10.29183
G1 X-.569 Y1.133 E10.29541
G1 X-.437 Y1.332 E10.2996
G1 X-.261 Y1.56 E10.30466
G1 X-0.062 Y1.79 E10.31
G1 X0.443 Y2.305 E10.32267
G1 X0.674 Y2.506 E10.32805
G1 X0.889 Y2.668 E10.33277
G1 X1.097 Y2.795 E10.33705
G1 X1.272 Y2.876 E10.34044
G1 X1.435 Y2.926 E10.34343
G1 X1.581 Y2.941 E10.34601
G1 X1.71 Y2.932 E10.34828
G1 X1.842 Y2.891 E10.35071
G1 X1.962 Y2.826 E10.35311
G1 X2.098 Y2.721 E10.35612
G0 F6000 X2.199 Y2.615
G0 X2.27 Y2.513
G0 X2.315 Y2.415
G0 X2.32 Y2.393
G1 F1800 E9.05612
G0 F6000 X1.643 Y2.201
G0 X1.754 Y2.689
G0 X2.897 Y4.174
G0 X2.835 Y4.839
G0 X2.73 Y4.646
;TYPE:WALL-INNER
G1 F1800 E10.35612
G1 F2100 X2.407 Y4.821 E10.36257
G1 X1.998 Y4.964 E10.37018
G1 X1.678 Y5.025 E10.3759
G1 X1.568 Y5.037 E10.37785
G1 X1.156 Y5.043 E10.38508
G1 X0.76 Y4.989 E10.3921
G1 X0.352 Y4.88 E10.39952
G1 X-0.024 Y4.727 E10.40665
G1 X-.338 Y4.559 E10.4129
G1 X-.711 Y4.309 E10.42079
G1 X-1.116 Y3.966 E10.43011
G1 X-1.445 Y3.63 E10.43837
G1 X-1.802 Y3.189 E10.44833
G1 X-2.067 Y2.79 E10.45674
G1 F2032.3 X-2.328 Y2.338 E10.46621
G1 F2044.6 X-2.499 Y1.864 E10.4753
G1 F2144.7 X-2.629 Y1.377 E10.48397
G1 F2113.2 X-2.709 Y0.91 E10.49224
G1 F2082.6 X-2.704 Y0.33 E10.50251
G1 F2100 X-2.652 Y-0.041 E10.50909
G1 X-2.628 Y-.149 E10.51103
G1 X-2.522 Y-.5 E10.51747
G1 X-2.483 Y-.601 E10.51937
G1 X-2.327 Y-.929 E10.52575
G1 X-2.269 Y-1.029 E10.52778
G1 X-2.057 Y-1.336 E10.53433
G1 X-1.986 Y-1.424 E10.53632
G1 X-1.717 Y-1.706 E10.54316
G1 X-1.388 Y-1.971 E10.55058
G1 X-1.028 Y-2.182 E10.55791
G1 X-.647 Y-2.331 E10.56509
G1 X-.536 Y-2.362 E10.56712
G1 X-.243 Y-2.419 E10.57236
G1 X-.132 Y-2.432 E10.57432
G1 X0.28 Y-2.439 E10.58156
G1 X0.576 Y-2.405 E10.58679
G1 F2004 X0.678 Y-2.41 E10.58867
G1 F1747 X1.013 Y-2.377 E10.59577
G1 F1625.8 X1.443 Y-2.202 E10.60631
G1 X1.875 Y-1.973 E10.6174
G1 F1765.3 X2.149 Y-1.713 E10.62529
G1 F2032.3 X2.2 Y-1.654 E10.6267
G1 F2100 X2.543 Y-1.356 E10.63468
G1 X2.868 Y-1.021 E10.64288
G1 X3.244 Y-.563 E10.65328
G1 X3.518 Y-.169 E10.66171
G1 X3.783 Y0.299 E10.67116
G1 X4.007 Y0.837 E10.68139
G1 X4.127 Y1.261 E10.68913
G1 X4.196 Y1.711 E10.69712
G1 X4.202 Y2.185 E10.70545
G1 X4.137 Y2.657 E10.71382
G1 X4.108 Y2.773 E10.71592
G1 X3.966 Y3.19 E10.72365
G1 X3.73 Y3.635 E10.7325
G1 X3.501 Y3.95 E10.73934
G1 X3.146 Y4.327 E10.74843
G1 X3.067 Y4.398 E10.7503
G1 X2.73 Y4.646 E10.75764
G1 F1800 E9.45764
G0 F6000 X2.835 Y4.839
G0 X2.063 Y5.115
G0 X1.206 Y5.208
G0 X0.352 Y5.051
G0 X-.454 Y4.676
G0 X-1.2 Y4.107
G0 X-2.605 Y2.471
G0 X-2.803 Y2.518
G1 F1800 E10.75764
G1 F2032.3 X-2.712 Y2.96 E10.76583
G1 F2100 X-1.516 Y7.845 E10.85415
G1 X5.073 Y6.276 E10.9731
G1 X7.938 Y0.056 E11.09336
G1 X2.666 Y-2.379 E11.19535
G1 F1819.5 X2.186 Y-2.518 E11.20547
G1 F1625.8 X1.699 Y-2.755 E11.21776
G1 X1.215 Y-2.967 E11.22975
G1 F1819.5 X0.808 Y-3.235 E11.23962
G1 F2100 X-4.87 Y-5.859 E11.34947
G1 F2082.6 X-3.187 Y1.001 E11.47455
G1 F2113.2 X-3.081 Y1.487 E11.48323
G1 F2144.7 X-2.949 Y2.006 E11.49244
G1 F2044.6 X-2.803 Y2.518 E11.50204
G1 F1800 E10.20204
G0 F6000 X-2.605 Y2.471
G0 X-1.2 Y4.107
G0 X-.454 Y4.676
G0 X0.352 Y5.051
G0 X1.206 Y5.208
G0 X2.063 Y5.115
G0 X2.516 Y4.912
G0 X3.201 Y4.57
G0 X2.775 Y4.017
;TYPE:WALL-OUTER
G1 F1800 E11.50204
G1 F1500 X2.497 Y4.226 E11.50815
G1 X2.217 Y4.381 E11.51377
G1 X1.911 Y4.49 E11.51947
G1 X1.552 Y4.557 E11.52588
G1 X1.212 Y4.566 E11.53186
G1 X0.909 Y4.53 E11.53722
G1 X0.528 Y4.433 E11.54412
G1 X0.202 Y4.303 E11.55028
G1 X-.134 Y4.122 E11.55699
G1 X-.44 Y3.913 E11.56349
G1 X-.775 Y3.628 E11.57122
G1 X-1.058 Y3.343 E11.57827
G1 X-1.402 Y2.923 E11.58781
G1 X-1.679 Y2.504 E11.59663
G1 X-1.901 Y2.081 E11.60502
G1 X-2.055 Y1.689 E11.61241
G1 X-2.17 Y1.265 E11.62013
