;FLAVOR:Marlin
;TIME:1737
;Filament used: 0.548918m
;Layer height: 0.08
;MINX:-10.532
;MINY:-9.472
;MINZ:0.2
;MAXX:10.516
;MAXY:9.46
;MAXZ:15.96
;Generated with Cura_SteamEngine 5.4.0
M82 ;absolute extrusion mode
M140 S0
M104 S200 T0
M104 S0 T1
M107
G90
G28
M132 X Y Z A B
G1 Z50.00 F400
G161 X Y F3300
M6 T0
M907 X100 Y100 Z40 A80 B20
M108 T0
G1 Z.20 F400
G92 E0
G92 E0
G1 F1800 E-1.3
;LAYER_COUNT:198
;LAYER:0
M106 S255
;MESH:D100_16mm.stl
G0 F3000 X1.196 Y-1.282 Z0.2
;TYPE:WALL-INNER
G1 F1800 E0
G1 F1686.2 X0.857 Y-1.139 E0.01437
G1 X0.333 Y-.787 E0.03902
G1 F1651.4 X-.358 Y-.211 E0.0749
G1 X-1.022 Y0.365 E0.10995
G1 F1686.2 X-1.46 Y0.83 E0.1349
G1 X-1.654 Y1.141 E0.14922
G1 X-1.616 Y1.192 E0.1517
G1 X-1.275 Y1.046 E0.16619
G1 X-.753 Y0.696 E0.19073
G1 F1651.4 X-0.063 Y0.121 E0.22655
G1 X0.623 Y-.476 E0.26282
G1 F1686.2 X1.036 Y-.916 E0.28639
G1 X1.235 Y-1.234 E0.30104
G1 X1.196 Y-1.282 E0.30345
G1 F1800 E-0.99655
G0 F3000 X0.585 Y-.721
G0 X-.216 Y-0.058
G0 X0.245 Y0.467
;TYPE:WALL-OUTER
G1 F1800 E0.30345
G1 F1500 X0.933 Y-.144 E0.34385
G1 X1.397 Y-.639 E0.37364
G1 X1.656 Y-1.051 E0.395
G1 X1.691 Y-1.181 E0.40091
G1 X1.691 Y-1.304 E0.40631
G1 X1.654 Y-1.425 E0.41187
G1 X1.561 Y-1.562 E0.41914
G1 X1.454 Y-1.661 E0.42554
G1 X1.339 Y-1.72 E0.43121
G1 X1.22 Y-1.739 E0.4365
G1 X1.079 Y-1.726 E0.44272
G1 X0.64 Y-1.539 E0.46367
G1 X0.063 Y-1.151 E0.4942
G1 X-.665 Y-.558 E0.53542
G1 X-1.352 Y0.053 E0.57579
G1 X-1.82 Y0.552 E0.60582
G1 X-2.076 Y0.958 E0.62689
G1 X-2.111 Y1.088 E0.6328
G1 X-2.109 Y1.213 E0.63829
G1 X-2.072 Y1.334 E0.64385
G1 X-1.98 Y1.47 E0.65106
G1 X-1.873 Y1.57 E0.65749
G1 X-1.758 Y1.629 E0.66316
G1 X-1.639 Y1.649 E0.66846
G1 X-1.5 Y1.635 E0.67459
G1 X-1.056 Y1.446 E0.69578
G1 X-.483 Y1.06 E0.72611
G1 X0.245 Y0.467 E0.76733
G0 F3000 X0.544 Y0.202
G1 F1800 E-0.53267
G0 F3000 X0.081 Y-.321
G0 X0.777 Y-.296
G0 X3.498 Y3.048
G0 X3.971 Y3.262
G0 X4.583 Y2.7
;TYPE:WALL-INNER
G1 F1800 E0.76733
G1 F1686.2 X4.237 Y2.846 E0.782
G1 X3.72 Y3.195 E0.80636
G1 F1651.4 X3.029 Y3.771 E0.84224
G1 X2.365 Y4.347 E0.87729
G1 F1686.2 X1.929 Y4.809 E0.9021
G1 X1.732 Y5.125 E0.91664
G1 X1.772 Y5.174 E0.91911
G1 X2.115 Y5.028 E0.93367
G1 X2.634 Y4.678 E0.95812
G1 F1651.4 X3.324 Y4.103 E0.99394
G1 X4.01 Y3.506 E1.03021
G1 F1686.2 X4.423 Y3.066 E1.05377
G1 X4.622 Y2.748 E1.06843
G1 X4.583 Y2.7 E1.07084
G1 F1800 E-0.22916
G0 F3000 X3.971 Y3.262
G0 X3.171 Y3.924
G0 X3.632 Y4.449
;TYPE:WALL-OUTER
G1 F1800 E1.07084
G1 F1500 X4.32 Y3.838 E1.11124
G1 X4.784 Y3.343 E1.14103
G1 X5.043 Y2.931 E1.16239
G1 X5.078 Y2.801 E1.1683
G1 X5.078 Y2.678 E1.1737
G1 X5.041 Y2.557 E1.17926
G1 X4.948 Y2.42 E1.18653
G1 X4.841 Y2.321 E1.19293
G1 X4.726 Y2.262 E1.1986
G1 X4.607 Y2.243 E1.20389
G1 X4.468 Y2.256 E1.21002
G1 X4.022 Y2.446 E1.23131
G1 X3.45 Y2.831 E1.26158
G1 X2.722 Y3.424 E1.3028
G1 X2.035 Y4.035 E1.34316
G1 X1.57 Y4.53 E1.37298
G1 X1.311 Y4.942 E1.39435
G1 X1.277 Y5.071 E1.4002
G1 X1.277 Y5.195 E1.40565
G1 X1.315 Y5.317 E1.41126
G1 X1.403 Y5.449 E1.41822
G1 X1.51 Y5.549 E1.42465
G1 X1.63 Y5.611 E1.43058
G1 X1.748 Y5.631 E1.43584
G1 X1.887 Y5.617 E1.44197
G1 X2.332 Y5.428 E1.4632
G1 X2.904 Y5.042 E1.49349
G1 X3.632 Y4.449 E1.53472
G0 F3000 X3.931 Y4.184
G1 F1800 E0.23472
G0 F3000 X3.468 Y3.661
G0 X3.487 Y4.287
G0 X5.025 Y5.896
G0 X5.081 Y6.193
;TYPE:WALL-INNER
G1 F1800 E1.53472
G1 F1384.6 X5.017 Y6.193 E1.53776
G1 X4.984 Y6.249 E1.54085
G1 X5.017 Y6.305 E1.54394
G1 X5.081 Y6.305 E1.54699
G1 X5.114 Y6.249 E1.55008
G1 F1800 E0.25008
G0 F3000 X6.19 Y4.422
G0 X6.3 Y4.092
G0 X6.691 Y2.35
G0 X6.638 Y2.713
G1 F1800 E1.55008
G1 F1500 X6.65 Y2.819 E1.55476
G1 X7.875 Y0.157 E1.68341
G1 X2.881 Y-2.149 E1.92491
G1 X2.968 Y-2.024 E1.9316
G1 X3.046 Y-1.872 E1.9391
G1 X3.208 Y-1.443 E1.95923
G1 X3.25 Y-1.269 E1.96709
G1 X3.301 Y-.816 E1.9871
G1 X3.301 Y-.651 E1.99435
G1 X3.244 Y-.162 E2.01596
G1 X3.213 Y-0.021 E2.0223
G1 X3.048 Y0.479 E2.04542
G1 X2.924 Y0.721 E2.05736
G1 X3.061 Y0.671 E2.06376
G1 X3.183 Y0.64 E2.06928
G1 X3.704 Y0.556 E2.09245
G1 X3.851 Y0.548 E2.09892
G1 X4.335 Y0.568 E2.12018
G1 X4.49 Y0.591 E2.12706
G1 X4.945 Y0.719 E2.14782
G1 X5.052 Y0.759 E2.15283
G1 X5.5 Y1.013 E2.17544
G1 X5.639 Y1.117 E2.18306
G1 X5.987 Y1.45 E2.20421
G1 X6.084 Y1.563 E2.21075
G1 X6.354 Y1.957 E2.23172
G1 X6.433 Y2.11 E2.23928
G1 X6.596 Y2.539 E2.25942
G1 X6.638 Y2.713 E2.26728
G1 F1800 E0.96728
G0 F3000 X6.691 Y2.35
G0 X6.386 Y3.838
G0 X6.19 Y4.422
G0 X5.881 Y4.979
G0 X5.462 Y5.504
G0 X4.938 Y6.006
G0 X4.359 Y6.442
G0 X3.772 Y6.771
G0 X3.173 Y6.989
G0 X2.829 Y7.044
G0 X0.939 Y7.089
G0 X1.245 Y7.084
G1 F1800 E2.26728
G1 F1500 X0.854 Y6.86 E2.28707
G1 X0.716 Y6.756 E2.29465
G1 X0.367 Y6.424 E2.3158
G1 X0.27 Y6.309 E2.32241
G1 X0.00 Y5.916 E2.34334
G1 X-0.065 Y5.798 E2.34925
G1 X-.267 Y5.251 E2.37486
G1 X-.333 Y4.706 E2.39896
G1 X-.333 Y4.542 E2.40616
G1 X-.276 Y4.055 E2.42768
G1 X-.245 Y3.913 E2.43407
G1 X-0.083 Y3.421 E2.45681
G1 X-0.024 Y3.289 E2.46315
G1 X0.043 Y3.171 E2.46911
G1 X-0.093 Y3.219 E2.47544
G1 X-.226 Y3.253 E2.48147
G1 X-.737 Y3.335 E2.50419
G1 X-.884 Y3.343 E2.51066
G1 X-1.368 Y3.323 E2.53192
G1 X-1.534 Y3.297 E2.5393
G1 X-1.977 Y3.172 E2.55951
G1 X-2.14 Y3.103 E2.56728
G1 X-2.533 Y2.879 E2.58714
G1 X-2.63 Y2.805 E2.5925
G1 X-1.535 Y7.273 E2.79446
G1 X-1.017 Y7.498 E2.81926
G1 X-.8 Y7.567 E2.82925
G1 X-.657 Y7.628 E2.83608
G1 X1.383 Y7.142 E2.92815
G1 X1.245 Y7.084 E2.93472
G1 F1800 E1.63472
G0 F3000 X0.939 Y7.089
G0 X2.565 Y7.087
G0 X3.173 Y6.989
G0 X3.772 Y6.771
G0 X4.359 Y6.442
G0 X4.938 Y6.006
G0 X5.462 Y5.504
G0 X5.881 Y4.979
G0 X6.19 Y4.422
G0 X6.386 Y3.838
G0 X6.455 Y3.249
G0 X6.389 Y2.679
G0 X6.577 Y1.94
G0 X6.193 Y1.374
G0 X2.471 Y-2.323
G0 X2.044 Y-2.73
G0 X1.547 Y-3.015
G0 X0.995 Y-3.169
G0 X0.403 Y-3.196
G0 X-.205 Y-3.098
G0 X-.988 Y-3.281
G0 X-1.351 Y-3.079
G0 X-3.406 Y-1.02
G0 X-3.415 Y-.685
G1 F1800 E2.93472
G1 F1500 X-3.143 Y-1.171 E2.95917
G1 X-3.078 Y-1.269 E2.96433
G1 X-2.633 Y-1.816 E2.99529
G1 X-2.096 Y-2.323 E3.02772
G1 X-1.484 Y-2.776 E3.06114
G1 X-.954 Y-3.074 E3.08784
G1 X-.845 Y-3.124 E3.0931
G1 X-.335 Y-3.309 E3.11692
G1 X-.205 Y-3.342 E3.12281
G1 X0.169 Y-3.402 E3.13944
G1 X-4.7 Y-5.651 E3.37491
G1 X-3.458 Y-.584 E3.60395
G1 X-3.415 Y-.685 E3.60877
G1 F1800 E2.30877
G0 F3000 X-3.406 Y-1.02
G0 X-1.632 Y-2.919
G0 X-.988 Y-3.281
G0 X-.205 Y-3.098
G0 X0.403 Y-3.196
G0 X0.995 Y-3.169
G0 X1.547 Y-3.015
G0 X2.044 Y-2.73
G0 X2.471 Y-2.323
G0 X6.193 Y1.374
G0 X6.577 Y1.94
G0 X6.389 Y2.679
G0 X6.455 Y3.249
G0 X6.386 Y3.838
G0 X6.19 Y4.422
G0 X5.881 Y4.979
G0 X5.462 Y5.504
G0 X4.938 Y6.006
G0 X4.359 Y6.442
G0 X3.772 Y6.771
G0 X3.173 Y6.989
G0 X2.565 Y7.087
G0 X1.973 Y7.06
G0 X1.42 Y6.906
G0 X0.66 Y6.973
G0 X0.163 Y6.499
G0 X-.223 Y5.933
G0 X-.409 Y5.452
G0 X-.265 Y3.433
G0 X0.301 Y2.563
;TYPE:WALL-OUTER
G1 F1800 E3.60877
G1 F1500 X-.292 Y2.777 E3.63645
G1 X-.813 Y2.861 E3.65962
G1 X-1.404 Y2.835 E3.68559
G1 X-1.847 Y2.71 E3.7058
G1 X-1.901 Y2.687 E3.70838
G1 X-2.293 Y2.462 E3.72822
G1 X-2.339 Y2.427 E3.73076
G1 X-2.72 Y2.056 E3.75411
G1 F1558.4 X-2.976 Y1.652 E3.77432
G1 F1694.1 X-3.151 Y1.146 E3.79513
G1 F1690.1 X-3.225 Y0.618 E3.8159
G1 F1555.1 X-3.186 Y0.128 E3.83672
G1 F1500 X-3.014 Y-.41 E3.86152
G1 X-2.702 Y-.97 E3.88966
G1 X-2.301 Y-1.469 E3.91777
G1 X-1.807 Y-1.939 E3.9477
G1 X-1.248 Y-2.358 E3.97837
G1 X-.718 Y-2.656 E4.00507
G1 X-.172 Y-2.857 E4.03061
G1 X0.393 Y-2.952 E4.05577
G1 F1431.4 X0.991 Y-2.948 E4.08328
G1 F1417.3 X1.465 Y-2.791 E4.10648
G1 F1442.9 X1.881 Y-2.565 E4.12809
G1 F1457.5 X2.302 Y-2.147 E4.15489
G1 F1500 X2.571 Y-1.753 E4.17584
G1 X2.759 Y-1.273 E4.19847
G1 X2.773 Y-1.215 E4.20109
G1 X2.824 Y-.707 E4.22351
G1 X2.757 Y-.172 E4.24718
G1 X2.594 Y0.322 E4.27002
G1 X2.283 Y0.879 E4.29802
G1 F1596.5 X1.883 Y1.334 E4.32301
G1 F1800 X1.356 Y1.807 E4.34892
G1 F1804.5 X0.815 Y2.241 E4.37423
G1 F1596.5 X0.301 Y2.563 E4.39925
G0 F3000 X-0.075 Y2.698
G1 F1800 E3.09925
G0 F3000 X-.265 Y3.433
G0 X-.463 Y5.297
G0 X-.223 Y5.933
G0 X0.163 Y6.499
G0 X0.66 Y6.973
G0 X1.42 Y6.906
G0 X1.973 Y7.06
G0 X2.505 Y7.084
G0 X3.753 Y6.842
G0 X3.655 Y6.571
G1 F1800 E4.39925
G1 F1487.6 X3.094 Y6.753 E4.42536
G1 F1506.3 X2.575 Y6.846 E4.44842
G1 F1487.6 X1.984 Y6.817 E4.47461
G1 F1500 X1.539 Y6.692 E4.4949
G1 X1.094 Y6.444 E4.51727
G1 X1.048 Y6.409 E4.51981
G1 X0.666 Y6.038 E4.54319
G1 X0.375 Y5.605 E4.56609
G1 X0.199 Y5.137 E4.58804
G1 X0.144 Y4.598 E4.61183
G1 X0.211 Y4.063 E4.6355
G1 X0.395 Y3.524 E4.6605
G1 X0.685 Y3.011 E4.68638
G1 F1592.9 X1.075 Y2.566 E4.71084
G1 F1800 X1.616 Y2.08 E4.73745
G1 X2.152 Y1.65 E4.76259
G1 F1596.5 X2.666 Y1.329 E4.78759
G1 F1500 X3.259 Y1.114 E4.81528
G1 X3.78 Y1.03 E4.83845
G1 X4.371 Y1.056 E4.86442
G1 X4.815 Y1.181 E4.88467
G1 X4.869 Y1.204 E4.88725
G1 X5.261 Y1.429 E4.90709
G1 X5.307 Y1.464 E4.90963
G1 X5.688 Y1.835 E4.93298
G1 X5.958 Y2.229 E4.95395
G1 X6.146 Y2.709 E4.97658
G1 X6.16 Y2.767 E4.9792
G1 X6.211 Y3.219 E4.99917
G1 F1469.4 X6.158 Y3.799 E5.02527
G1 F1475.4 X5.968 Y4.325 E5.05023
G1 F1481.5 X5.688 Y4.854 E5.07684
G1 F1475.4 X5.271 Y5.358 E5.10604
G1 F1500 X4.797 Y5.812 E5.13485
G1 X4.216 Y6.249 E5.16677
G1 F1469.4 X3.655 Y6.571 E5.19576
G0 F3000 X3.275 Y6.694
G0 X3.797 Y7.05
G1 F1469.4 X4.469 Y6.901 E5.22661
G1 F1500 X5.401 Y6.678 E5.26868
G1 F1475.4 X6.118 Y5.1 E5.34605
G1 F1481.5 X6.398 Y4.522 E5.3746
G1 F1472.4 X6.622 Y3.998 E5.40009
G1 F1466.4 X6.881 Y3.463 E5.42678
G1 F1500 X8.511 Y-0.078 E5.59792
G1 X2.671 Y-2.775 E5.88034
G1 F1457.5 X2.115 Y-3.017 E5.90774
G1 F1442.9 X1.669 Y-3.234 E5.93037
G1 F1417.3 X1.172 Y-3.441 E5.95539
G1 F1431.4 X0.626 Y-3.719 E5.98358
G1 F1500 X-5.403 Y-6.505 E6.27517
G1 X-3.77 Y0.164 E6.57661
G1 F1625.3 X-3.545 Y1.243 E6.62127
G1 X-3.249 Y2.293 E6.66547
G1 F1500 X-1.942 Y7.629 E6.90667
G1 X-1.266 Y7.91 E6.93881
G1 X-1.201 Y7.945 E6.94205
G1 X-.989 Y8.008 E6.95176
G1 X-.7 Y8.132 E6.96556
G1 F1487.6 X2.67 Y7.325 E7.11897
G1 F1506.3 X3.22 Y7.205 E7.14358
G1 F1487.6 X3.797 Y7.05 E7.17003
G0 F3000 X4.187 Y6.964
G1 F1800 E5.87003
G0 F3000 X4.119 Y6.677
G0 X3.173 Y6.989
G0 X2.565 Y7.087
G0 X2.398 Y7.08
G0 X0.054 Y6.757
;TYPE:SKIN
G1 F1800 E7.17003
G1 F1500 X0.249 Y6.941 E7.1818
G1 X-.62 Y7.149 E7.22103
G1 X-.859 Y7.068 E7.23211
G1 X-1.146 Y6.944 E7.24584
G1 X-1.206 Y6.7 E7.25687
G1 F1245.7 X-1.227 Y6.201 E7.28327
G1 F1094.2 X-1.412 Y5.529 E7.32522
G1 X-1.547 Y4.9 E7.36394
G1 F1210.1 X-1.717 Y4.541 E7.38555
G1 F1445.8 X-1.767 Y4.412 E7.39186
G1 F1500 X-1.953 Y3.654 E7.42612
G1 X-1.663 Y3.736 E7.43935
G1 X-1.408 Y3.777 E7.45069
G1 X-.906 Y3.8 E7.47276
G1 X-.683 Y3.787 E7.48256
G1 X-.723 Y3.965 E7.49057
G1 X-.77 Y4.351 E7.50764
G1 F1445.8 X-.804 Y4.485 E7.51394
G1 F1353.4 X-.821 Y4.514 E7.51558
G1 F1241.4 X-.881 Y4.801 E7.53113
G1 F1150.2 X-.791 Y5.377 E7.56451
G1 F1094.2 X-.581 Y6.003 E7.60425
G1 F1163.2 X-.428 Y6.171 E7.61712
G1 F1382 X-.295 Y6.294 E7.62575
G1 F1500 X-.111 Y6.563 E7.64006
G1 X0.054 Y6.757 E7.65124
G0 F3000 X-.954 Y6.512
G1 F1500 X-.576 Y6.89 E7.67471
G1 F1800 E6.37471
G0 F3000 X-1.035 Y4.394
G1 F1800 E7.67471
G1 F1500 X-1.414 Y4.015 E7.69824
G1 F1800 E6.39824
G0 F3000 X0.163 Y6.499
G0 X0.66 Y6.973
G0 X1.42 Y6.906
G0 X1.973 Y7.06
G0 X2.565 Y7.087
G0 X3.173 Y6.989
G0 X3.772 Y6.771
G0 X4.359 Y6.442
G0 X4.938 Y6.006
G0 X5.462 Y5.504
G0 X5.881 Y4.979
G0 X6.19 Y4.422
G0 X6.386 Y3.838
G0 X6.455 Y3.249
G0 X6.437 Y3.088
G0 X5.965 Y0.728
G1 F1800 E7.69824
G1 F1142.9 X5.811 Y0.554 E7.71163
G1 F1084.3 X5.276 Y0.266 E7.74853
G1 F1100.9 X5.097 Y0.195 E7.76005
G1 F1121.5 X4.663 Y0.054 E7.78684
G1 F1214.2 X4.381 Y0.075 E7.80218
G1 F1330.9 X4.351 Y0.09 E7.80384
G1 F1434.3 X4.245 Y0.107 E7.80877
G1 F1500 X3.872 Y0.092 E7.82516
G1 X3.652 Y0.102 E7.83483
G1 X3.693 Y-0.08 E7.84302
G1 X3.754 Y-.597 E7.86588
G1 X3.755 Y-.877 E7.87817
G1 X3.711 Y-1.263 E7.89522
G1 X4.489 Y-.903 E7.93286
G1 F1224.5 X4.884 Y-.603 E7.95954
G1 F1069.8 X5.548 Y-.323 E8.0039
G1 F1084.3 X6.155 Y-0.025 E8.04496
G1 F1176.5 X6.471 Y0.048 E8.06312
G1 F1403.5 X6.789 Y0.159 E8.07892
G1 F1500 X7.269 Y0.38 E8.10212
G1 X6.689 Y1.638 E8.16294
G1 X6.465 Y1.31 E8.18038
G1 X6.298 Y1.115 E8.19165
G1 X6.199 Y1.02 E8.19767
G1 F1403.5 X5.981 Y0.765 E8.21342
G1 F1276.6 X5.965 Y0.728 E8.21549
G0 F3000 X6.841 Y0.731
G1 F1500 X6.42 Y0.311 E8.2416
G0 F3000 X4.521 Y-.229
G1 F1500 X3.993 Y-.758 E8.27442
G1 F1800 E6.97442
G0 F3000 X2.044 Y-2.73
G0 X1.547 Y-3.015
G0 X0.995 Y-3.169
G0 X0.403 Y-3.196
G0 X-2.48 Y-2.596
G1 F1800 E8.27442
G1 F1500 X-2.946 Y-2.149 E8.30277
G1 X-3.048 Y-2.04 E8.30932
G1 X-3.278 Y-1.751 E8.32554
G1 X-4.031 Y-4.839 E8.46508
G1 X-1.126 Y-3.497 E8.60557
G1 X-1.704 Y-3.177 E8.63458
G1 X-1.83 Y-3.095 E8.64118
G1 X-2.48 Y-2.596 E8.67716
G0 F3000 X-3.052 Y-2.373
G1 F1500 X-3.223 Y-2.544 E8.68777
G0 F3000 X-2.706 Y-2.706
G1 F1500 X-3.443 Y-3.443 E8.73353
G0 F3000 X-3.663 Y-4.342
G1 F1500 X-2.332 Y-3.011 E8.81617
G0 F3000 X-1.946 Y-3.304
G1 F1500 X-2.515 Y-3.872 E8.85147
M104 S200
G1 F1800 E7.55147
;MESH:NONMESH
G0 F600 X-2.515 Y-3.872 Z0.28
G0 F3000 X-.255 Y-3.039
G0 X0.741 Y-1.346
G0 X0.585 Y-.721
G0 X1.197 Y-1.283
;TIME_ELAPSED:14.379606
;LAYER:1
;TYPE:WALL-INNER
;MESH:D100_16mm.stl
G1 F1800 E8.85147
G1 F2366.2 X0.858 Y-1.14 E8.8572
G1 X0.349 Y-.798 E8.86676
G1 F2317.2 X-.358 Y-.213 E8.88137
G1 X-1.035 Y0.377 E8.89566
G1 F2366.2 X-1.46 Y0.829 E8.90533
G1 X-1.654 Y1.14 E8.91104
G1 X-1.616 Y1.191 E8.91203
G1 X-1.275 Y1.045 E8.91781
G1 X-.745 Y0.688 E8.92777
G1 F2317.2 X-0.062 Y0.12 E8.94191
G1 X0.623 Y-.477 E8.95637
G1 F2366.2 X1.038 Y-.919 E8.96582
G1 X1.236 Y-1.235 E8.97163
G1 X1.197 Y-1.283 E8.9726
G1 F1800 E7.6726
G0 F6000 X0.584 Y-.721
G0 X-.217 Y-0.056
G0 X0.246 Y0.465
;TYPE:WALL-OUTER
G1 F1800 E8.9726
G1 F1500 X0.933 Y-.145 E8.98873
G1 X1.398 Y-.64 E9.00066
G1 X1.657 Y-1.052 E9.0092
G1 X1.692 Y-1.182 E9.01157
G1 X1.692 Y-1.305 E9.01373
G1 X1.655 Y-1.426 E9.01595
G1 X1.562 Y-1.563 E9.01886
G1 X1.456 Y-1.661 E9.02139
G1 X1.338 Y-1.721 E9.02372
G1 X1.22 Y-1.74 E9.02582
G1 X1.079 Y-1.727 E9.0283
G1 X0.641 Y-1.54 E9.03667
G1 X0.064 Y-1.151 E9.04889
G1 X-.664 Y-.559 E9.06537
G1 X-1.351 Y0.052 E9.08151
G1 X-1.82 Y0.551 E9.09354
G1 X-2.076 Y0.957 E9.10197
G1 X-2.111 Y1.087 E9.10433
G1 X-2.109 Y1.212 E9.10653
G1 X-2.072 Y1.333 E9.10875
G1 X-1.98 Y1.469 E9.11163
G1 X-1.873 Y1.569 E9.1142
G1 X-1.758 Y1.628 E9.11647
G1 X-1.639 Y1.648 E9.11859
G1 X-1.5 Y1.634 E9.12105
G1 X-1.056 Y1.445 E9.12952
G1 X-.506 Y1.075 E9.14116
G1 X0.246 Y0.465 E9.15817
G0 F6000 X0.545 Y0.2
G1 F1800 E7.85817
G0 F6000 X0.082 Y-.322
G0 X0.783 Y-.303
G0 X3.582 Y3.003
G0 X4.239 Y3.043
G0 X4.583 Y2.698
;TYPE:WALL-INNER
G1 F1800 E9.15817
G1 F2360.7 X4.243 Y2.841 E9.16393
G1 X3.72 Y3.194 E9.17379
G1 F2311.9 X3.029 Y3.77 E9.18814
G1 X2.365 Y4.346 E9.20216
G1 F2360.7 X1.929 Y4.808 E9.21208
G1 X1.731 Y5.123 E9.21789
G1 X1.771 Y5.173 E9.21889
G1 X2.115 Y5.027 E9.22473
G1 X2.634 Y4.677 E9.23451
G1 F2311.9 X3.324 Y4.102 E9.24884
G1 X4.01 Y3.505 E9.26335
G1 F2360.7 X4.423 Y3.064 E9.27278
G1 X4.623 Y2.747 E9.27864
G1 X4.583 Y2.698 E9.27963
G1 F1800 E7.97963
G0 F6000 X4.239 Y3.043
G0 X3.171 Y3.923
G0 X3.632 Y4.448
;TYPE:WALL-OUTER
G1 F1800 E9.27963
G1 F1500 X4.32 Y3.837 E9.29579
G1 X4.783 Y3.342 E9.30769
G1 X5.043 Y2.93 E9.31625
G1 X5.078 Y2.8 E9.31861
G1 X5.078 Y2.676 E9.32079
G1 X5.041 Y2.556 E9.32299
G1 X4.95 Y2.421 E9.32585
G1 X4.84 Y2.319 E9.32849
G1 X4.725 Y2.261 E9.33075
G1 X4.607 Y2.242 E9.33285
G1 X4.466 Y2.255 E9.33533
G1 X4.026 Y2.441 E9.34372
G1 X3.45 Y2.83 E9.35593
G1 X2.722 Y3.423 E9.37242
G1 X2.035 Y4.034 E9.38856
G1 X1.57 Y4.529 E9.40049
G1 X1.311 Y4.94 E9.40902
G1 X1.277 Y5.07 E9.41138
G1 X1.278 Y5.194 E9.41356
G1 X1.315 Y5.315 E9.41578
G1 X1.407 Y5.451 E9.41867
G1 X1.514 Y5.551 E9.42124
G1 X1.629 Y5.61 E9.42351
G1 X1.748 Y5.63 E9.42563
G1 X1.887 Y5.616 E9.42808
G1 X2.332 Y5.427 E9.43657
G1 X2.904 Y5.041 E9.44869
G1 X3.632 Y4.448 E9.46518
G0 F6000 X3.931 Y4.183
G1 F1800 E8.16518
G0 F6000 X3.468 Y3.66
G0 X3.487 Y4.286
G0 X5.025 Y5.895
G0 X5.082 Y6.191
;TYPE:WALL-INNER
G1 F1800 E9.46518
G1 F1938.5 X5.018 Y6.191 E9.46639
G1 X4.985 Y6.247 E9.46763
G1 X5.018 Y6.303 E9.46887
G1 X5.082 Y6.303 E9.47009
G1 X5.115 Y6.247 E9.47132
G1 F1800 E8.17132
G0 F6000 X6.19 Y4.421
G0 X6.3 Y4.09
G0 X6.692 Y2.35
G0 X6.638 Y2.712
