;FLAVOR:Marlin
;TIME:1509
;Filament used: 0.42364m
;Layer height: 0.08
;MINX:-9.593
;MINY:-8.274
;MINZ:0.2
;MAXX:9.593
;MAXY:8.274
;MAXZ:13.96
;Generated with Cura_SteamEngine 5.4.0
M82 ;absolute extrusion mode
M140 S0
M104 S200 T0
M104 S0 T1
M107
G90
G28
M132 X Y Z A B
G1 Z50.00 F400
G161 X Y F3300
M6 T0
M907 X100 Y100 Z40 A80 B20
M108 T0
G1 Z.20 F400
G92 E0
G92 E0
G1 F1800 E-1.3
;LAYER_COUNT:173
;LAYER:0
M106 S255
;MESH:D8_14mm.stl
G0 F3000 X-.125 Y0.329 Z0.2
;TYPE:WALL-INNER
G1 F1800 E0
G1 F1548.4 X-0.071 Y0.267 E0.0035
G1 X-0.055 Y0.206 E0.00618
G1 X-0.08 Y0.1 E0.01081
G1 X-.137 Y0.011 E0.01531
G1 X-.218 Y-0.076 E0.02036
G1 X-.304 Y-.134 E0.02477
G1 X-.363 Y-.147 E0.02734
G1 X-.54 Y-0.028 E0.03641
G1 X-.682 Y0.113 E0.04493
G1 X-.614 Y0.196 E0.04949
G1 X-.484 Y0.315 E0.05698
G1 X-.426 Y0.35 E0.05987
G1 X-.329 Y0.385 E0.06425
G1 X-.249 Y0.387 E0.06766
G1 X-.2 Y0.372 E0.06984
G1 X-.125 Y0.329 E0.07351
G0 F3000 X0.171 Y0.698
;TYPE:WALL-OUTER
G1 F1500 X0.303 Y0.559 E0.08193
G1 X0.375 Y0.426 E0.08857
G1 X0.416 Y0.261 E0.09603
G1 X0.407 Y0.08 E0.10399
G1 X0.345 Y-.114 E0.11293
G1 X0.237 Y-.28 E0.12162
G1 X0.091 Y-.438 E0.13107
G1 X-0.08 Y-.552 E0.14009
G1 X-.139 Y-.579 E0.14294
G1 X-.237 Y-.605 E0.14739
G1 X-.406 Y-.618 E0.15483
G1 X-.556 Y-.58 E0.16163
G1 X-.64 Y-.538 E0.16575
G1 X-.817 Y-.414 E0.17524
G1 X-.97 Y-.274 E0.18434
G1 X-1.1 Y-.123 E0.19309
G1 X-1.185 Y-0.003 E0.19955
G1 X-1.242 Y0.098 E0.20464
G1 X-1.058 Y0.4 E0.22017
G1 X-.968 Y0.51 E0.22641
G1 X-.855 Y0.622 E0.23339
G1 X-.755 Y0.702 E0.23901
G1 X-.643 Y0.771 E0.24479
G1 X-.544 Y0.814 E0.24953
G1 X-.431 Y0.848 E0.25471
G1 X-.321 Y0.862 E0.25958
G1 X-.218 Y0.86 E0.2641
G1 X-.119 Y0.843 E0.26851
G1 X-0.015 Y0.808 E0.27333
G1 X0.093 Y0.752 E0.27867
G1 X0.171 Y0.698 E0.28283
G0 F3000 X0.303 Y0.559
G0 X0.375 Y0.426
G0 X0.388 Y0.37
G1 F1800 E-1.01717
G0 F3000 X-.274 Y0.165
G0 X-0.054 Y0.603
G0 X0.992 Y2.113
G0 X1.009 Y2.704
G0 X0.907 Y2.508
;TYPE:WALL-INNER
G1 F1800 E0.28283
G1 F1500 X0.541 Y2.693 E0.30084
G1 X0.2 Y2.81 E0.31666
G1 X-.167 Y2.879 E0.33306
G1 X-.515 Y2.894 E0.34835
G1 X-.874 Y2.86 E0.36418
G1 X-1.213 Y2.778 E0.3795
G1 X-1.543 Y2.648 E0.39507
G1 X-1.847 Y2.479 E0.41034
G1 X-2.146 Y2.26 E0.42661
G1 X-2.41 Y2.008 E0.44263
G1 X-2.647 Y1.728 E0.45874
G1 X-2.852 Y1.419 E0.47502
G1 X-3.053 Y1.046 E0.49362
G1 X-3.183 Y0.742 E0.50814
G1 F1478.4 X-3.318 Y0.342 E0.52694
G1 F1406.2 X-3.351 Y0.284 E0.53007
G1 F1216.2 X-3.484 Y-0.031 E0.54858
G1 F1133.9 X-3.531 Y-.518 E0.577
G1 F1174.6 X-3.545 Y-.888 E0.59776
G1 F1180.3 X-3.539 Y-1.335 E0.6227
G1 F1159.4 X-3.513 Y-1.798 E0.64904
G1 F1111.1 X-3.462 Y-2.304 E0.67918
G1 F1256.5 X-3.283 Y-2.767 E0.7052
G1 F1500 X-3.162 Y-3.317 E0.72992
G1 X-3.04 Y-3.779 E0.7509
G1 X-2.864 Y-4.092 E0.76667
G1 X-2.615 Y-4.261 E0.77988
G1 X-2.446 Y-4.307 E0.78757
G1 X-1.115 Y-4.499 E0.84661
G1 F1297.3 X-.737 Y-4.533 E0.86587
G1 F1150.2 X-.615 Y-4.471 E0.87371
G1 F1306.7 X-.401 Y-4.174 E0.89216
G1 F1500 X-.257 Y-3.637 E0.91657
G1 X-.301 Y-3.47 E0.92415
G1 X-.585 Y-2.843 E0.95437
G1 X-.658 Y-2.654 E0.96327
G1 X-.451 Y-2.697 E0.97255
G1 X-.142 Y-2.72 E0.98615
G1 X0.177 Y-2.699 E1.00019
G1 X0.47 Y-2.641 E1.0133
G1 X0.565 Y-2.614 E1.01764
G1 X0.862 Y-2.495 E1.03168
G1 X1.069 Y-2.382 E1.04204
G1 X1.389 Y-2.152 E1.05934
G1 X1.585 Y-1.967 E1.07117
G1 X1.828 Y-1.682 E1.08761
G1 X2.003 Y-1.413 E1.1017
G1 X2.186 Y-1.047 E1.11967
G1 X2.302 Y-.692 E1.13607
G1 X2.371 Y-.318 E1.15276
G1 X2.389 Y0.00 E1.16675
G1 X2.356 Y0.424 E1.18542
G1 X2.298 Y0.696 E1.19763
G1 X2.184 Y1.041 E1.21358
G1 X2.021 Y1.379 E1.23005
G1 X1.762 Y1.765 E1.25046
G1 X1.503 Y2.051 E1.2674
G1 X1.271 Y2.256 E1.28099
G1 X0.907 Y2.508 E1.30043
G1 F1800 E0.00043
G0 F3000 X1.009 Y2.704
G0 X-0.089 Y3.032
G0 X-.843 Y3.028
G0 X-1.566 Y2.816
G0 X-2.209 Y2.417
G0 X-2.646 Y1.964
G0 X-3.997 Y0.038
G0 X-4.13 Y0.038
G1 F1800 E1.30043
G1 F1256.5 X-4.211 Y0.478 E1.32388
G1 F1478.4 X-4.216 Y7.354 E1.63016
G1 F1500 X8.481 Y0.00 E2.27435
G1 X0.164 Y-4.818 E2.69634
G1 F1306.7 X-.305 Y-5.008 E2.72184
G1 F1150.2 X-.472 Y-5.1 E2.73276
G1 F1297.3 X-.931 Y-5.451 E2.76209
G1 F1500 X-4.216 Y-7.354 E2.92877
G1 F1490.7 X-4.213 Y-2.824 E3.12889
G1 F1247.8 X-4.124 Y-2.363 E3.15367
G1 F1126.8 X-4.151 Y-1.341 E3.21342
G1 F1166.9 X-4.146 Y-.417 E3.26557
G1 F1130.3 X-4.13 Y0.038 E3.2921
G1 F1800 E1.9921
G0 F3000 X-3.997 Y0.038
G0 X-2.492 Y2.154
G0 X-1.899 Y2.636
G0 X-1.209 Y2.948
G0 X-.467 Y3.058
G0 X0.286 Y2.954
G0 X0.863 Y2.702
G0 X1.648 Y2.214
G0 X1.185 Y1.691
;TYPE:WALL-OUTER
G1 F1800 E3.2921
G1 F1500 X0.944 Y1.902 E3.30616
G1 X0.666 Y2.093 E3.32097
G1 X0.376 Y2.242 E3.33528
G1 X0.133 Y2.331 E3.34664
G1 X-.195 Y2.4 E3.36136
G1 X-.479 Y2.415 E3.37384
G1 X-.771 Y2.391 E3.38671
G1 X-1.013 Y2.338 E3.39758
G1 X-1.316 Y2.225 E3.41178
G1 X-1.57 Y2.087 E3.42447
G1 X-1.794 Y1.929 E3.43651
G1 X-2.047 Y1.694 E3.45167
G1 X-2.232 Y1.481 E3.46405
G1 X-2.431 Y1.188 E3.4796
G1 X-2.601 Y0.878 E3.49513
G1 X-2.75 Y0.53 E3.51175
G1 X-2.854 Y0.197 E3.52706
G1 X-2.935 Y-.173 E3.54369
G1 X-2.981 Y-.528 E3.55941
G1 X-3.001 Y-.934 E3.57725
G1 X-2.993 Y-1.339 E3.59504
G1 X-2.958 Y-1.767 E3.61389
G1 X-2.898 Y-2.202 E3.63317
G1 X-2.814 Y-2.664 E3.65379
G1 X-2.698 Y-3.194 E3.67761
G1 X-2.576 Y-3.656 E3.69858
G1 X-2.517 Y-3.76 E3.70383
G1 X-2.434 Y-3.817 E3.70825
G1 X-2.378 Y-3.832 E3.7108
G1 X-1.047 Y-4.024 E3.76984
G1 F1503.1 X-.909 Y-4.01 E3.77592
G1 X-.822 Y-3.932 E3.78104
G1 X-.781 Y-3.881 E3.7839
G1 F1500 X-.733 Y-3.701 E3.79208
G1 X-.753 Y-3.634 E3.79515
G1 X-1.032 Y-3.019 E3.8248
G1 X-1.226 Y-2.524 E3.84814
G1 X-1.322 Y-2.233 E3.8616
G1 X-1.437 Y-1.786 E3.88186
G1 X-1.461 Y-1.655 E3.88771
G1 X-1.401 Y-1.717 E3.89149
G1 X-1.216 Y-1.869 E3.90201
G1 X-1.049 Y-1.981 E3.91083
G1 X-.817 Y-2.098 E3.92224
G1 X-.574 Y-2.181 E3.93352
G1 X-.359 Y-2.225 E3.94315
G1 X-0.083 Y-2.24 E3.95529
G1 X0.135 Y-2.221 E3.96489
G1 X0.368 Y-2.172 E3.97535
G1 X0.632 Y-2.073 E3.98772
G1 X0.829 Y-1.966 E3.99757
G1 X1.064 Y-1.798 E4.01025
G1 X1.225 Y-1.649 E4.01988
G1 X1.409 Y-1.441 E4.03207
G1 X1.578 Y-1.19 E4.04536
G1 X1.732 Y-.89 E4.06016
G1 X1.832 Y-.596 E4.0738
G1 X1.888 Y-.321 E4.08612
G1 X1.909 Y0.00 E4.10024
G1 X1.886 Y0.324 E4.1145
G1 X1.82 Y0.625 E4.12803
G1 X1.718 Y0.911 E4.14136
G1 X1.576 Y1.191 E4.15514
G1 X1.401 Y1.448 E4.1688
G1 X1.185 Y1.691 E4.18307
G0 F3000 X0.944 Y1.902
G0 X0.879 Y1.947
G1 F1800 E2.88307
G0 F3000 X1.276 Y2.524
G0 X8.942 Y0.00
G0 X9.439 Y0.00
G1 F1800 E4.18307
G1 F1500 X-4.696 Y-8.187 E4.90022
G1 X-4.696 Y8.187 E5.6191
G1 X9.439 Y0.00 E6.33625
G0 F3000 X9.093 Y-.2
G1 F1800 E5.03625
G0 F3000 X8.145 Y0.00
G0 X1.53 Y2.716
;TYPE:SKIN
G1 F1800 E6.33625
G1 F1313.9 X1.489 Y2.663 E6.33961
G1 F1500 X1.805 Y2.392 E6.35788
G1 X1.904 Y2.295 E6.36397
G1 X2.202 Y1.94 E6.38432
G1 X2.419 Y1.602 E6.40195
G1 X2.614 Y1.192 E6.42188
G1 X2.738 Y0.814 E6.43935
G1 X2.801 Y0.526 E6.45229
G1 X2.824 Y0.367 E6.45935
G1 X2.844 Y-0.054 E6.47785
G1 X2.827 Y-.351 E6.49091
G1 X2.75 Y-.777 E6.50992
G1 X2.614 Y-1.208 E6.52976
G1 X2.557 Y-1.34 E6.53607
G1 X2.407 Y-1.63 E6.55041
G1 X2.207 Y-1.937 E6.56649
G1 F1454.5 X1.946 Y-2.272 E6.58572
G1 F1376.7 X1.935 Y-2.301 E6.5872
G1 F1224.5 X1.748 Y-2.549 E6.60391
G1 F1152 X1.335 Y-2.831 E6.6325
G1 F1165 X0.957 Y-3.031 E6.65667
G1 F1111.1 X0.581 Y-3.182 E6.68068
G1 F1069.8 X0.206 Y-3.252 E6.70417
G1 F1066.7 X0.258 Y-3.401 E6.71391
G1 X0.29 Y-3.563 E6.7241
G1 X0.281 Y-3.694 E6.73221
G1 X0.152 Y-4.181 E6.76332
G1 X0.793 Y-3.811 E6.80901
G1 F1107.7 X1.21 Y-3.598 E6.83685
G1 F1165 X1.641 Y-3.358 E6.86473
G1 F1152 X2.128 Y-3.058 E6.89743
G1 F1252.2 X2.491 Y-2.922 E6.91782
G1 F1454.5 X2.84 Y-2.737 E6.9357
G1 F1500 X7.568 Y0.00 E7.17555
G1 X1.919 Y3.271 E7.46214
G1 F1313.9 X1.881 Y3.217 E7.46545
G1 F1188.1 X1.459 Y3.472 E7.49278
G1 F1168.8 X0.754 Y3.856 E7.53801
G1 F1288 X0.386 Y4.159 E7.56238
G1 F1496.9 X-3.759 Y6.56 E7.77312
G1 F1500 X-3.76 Y0.835 E8.02447
G1 X-3.748 Y0.522 E8.03822
G1 X-3.602 Y0.923 E8.05696
G1 X-3.476 Y1.223 E8.07124
G1 X-3.209 Y1.711 E8.09567
G1 X-2.953 Y2.077 E8.11527
G1 X-2.686 Y2.38 E8.13301
G1 X-2.451 Y2.598 E8.14708
G1 X-2.098 Y2.86 E8.16638
G1 X-1.762 Y3.049 E8.1833
G1 X-1.284 Y3.235 E8.20582
G1 X-.997 Y3.301 E8.21875
G1 X-.824 Y3.328 E8.22644
G1 X-.547 Y3.349 E8.23863
G1 X-.121 Y3.334 E8.25735
G1 F1496.9 X0.048 Y3.31 E8.26486
G1 F1288 X0.486 Y3.282 E8.2873
G1 F1152 X0.724 Y3.184 E8.30201
G1 F1190.1 X1.161 Y2.957 E8.32926
G1 F1188.1 X1.53 Y2.716 E8.35369
G1 F1800 E7.05369
G0 F3000 X-3.418 Y6.084
G1 F1800 E8.35369
G1 F1500 X-3.518 Y5.984 E8.3599
G0 F3000 X-2.988 Y5.835
G1 F1500 X-3.518 Y5.306 E8.39278
G0 F3000 X-3.518 Y4.627
G1 F1500 X-2.559 Y5.586 E8.45232
G0 F3000 X-2.129 Y5.337
G1 F1500 X-3.518 Y3.948 E8.53856
G0 F3000 X-3.517 Y3.27
G1 F1500 X-1.699 Y5.088 E8.65144
G0 F3000 X-1.27 Y4.838
G1 F1500 X-3.517 Y2.591 E8.79095
G0 F3000 X-3.517 Y1.912
G1 F1500 X-.84 Y4.589 E8.95716
G0 F3000 X-.41 Y4.34
G1 F1500 X-1.269 Y3.482 E9.01047
G0 F3000 X-.487 Y3.585
G1 F1500 X0.018 Y4.091 E9.04185
G0 F3000 X0.402 Y3.796
G1 F1500 X0.153 Y3.547 E9.05731
G1 F1800 E7.75731
G0 F3000 X1.925 Y2.604
G1 F1800 E9.05731
G1 F1500 X2.168 Y2.847 E9.0724
G0 F3000 X2.598 Y2.598
G1 F1500 X2.251 Y2.251 E9.09394
G0 F3000 X2.538 Y1.859
G1 F1500 X3.028 Y2.349 E9.12437
G0 F3000 X3.458 Y2.1
G1 F1500 X2.771 Y1.413 E9.16702
G0 F3000 X2.954 Y0.918
G1 F1500 X3.888 Y1.851 E9.22498
G0 F3000 X4.318 Y1.603
G1 F1500 X3.063 Y0.348 E9.3029
G0 F3000 X3.068 Y-.325
G1 F1500 X4.748 Y1.354 E9.40718
G0 F3000 X5.178 Y1.105
G1 F1500 X2.863 Y-1.209 E9.55089
G1 X2.779 Y-1.293
G0 F3000 X3.155 Y-2.275
G1 F1500 X6.037 Y0.607 E9.72983
G0 F3000 X5.608 Y0.856
G1 F1500 X1.971 Y-2.78 E9.95561
G1 X1.887 Y-2.864
G1 F1800 E8.65561
G0 F3000 X4.765 Y-1.343
G1 F1800 E9.95561
G1 F1500 X6.467 Y0.358 E10.06126
G0 F3000 X6.897 Y0.109
G1 F1500 X6.376 Y-.411 E10.09357
G1 F1800 E8.79357
G0 F3000 X-.557 Y-4.734
G0 X-3.045 Y-4.376
G0 X-3.461 Y-3.945
G1 F1800 E10.09357
G1 F1500 X-3.484 Y-3.888 E10.09627
G1 X-3.604 Y-3.432 E10.11697
G1 X-3.742 Y-2.839 E10.1437
G1 X-3.754 Y-2.871 E10.1452
G1 X-3.759 Y-6.561 E10.30721
G1 X-1.182 Y-5.066 E10.43801
G1 X-1.083 Y-4.969 E10.44409
G1 X-2.516 Y-4.758 E10.50768
G1 X-2.754 Y-4.697 E10.51847
G1 X-2.828 Y-4.663 E10.52205
G1 X-3.156 Y-4.44 E10.53946
G1 X-3.23 Y-4.359 E10.54428
G1 X-3.461 Y-3.945 E10.56509
G0 F3000 X-3.285 Y-4.642
G1 F1500 X-3.516 Y-4.874 E10.57946
G0 F3000 X-2.872 Y-4.908
G1 F1500 X-3.517 Y-5.553 E10.61951
G0 F3000 X-3.302 Y-6.017
G1 F1500 X-2.314 Y-5.029 E10.68086
G1 X-2.23 Y-4.945
G0 F3000 X-2.228 Y-4.946
M104 S200
G1 F1800 E9.38086
;MESH:NONMESH
G0 F600 X-2.228 Y-4.946 Z0.28
G0 F3000 X-.734 Y-4.305
G0 X-.398 Y-3.855
G0 X-1.108 Y-2.19
G0 X-.481 Y-.374
G0 X-.262 Y0.143
G0 X-.129 Y0.33
;TIME_ELAPSED:14.615272
;LAYER:1
;TYPE:WALL-INNER
;MESH:D8_14mm.stl
G1 F1800 E10.68086
G1 F2163.1 X-0.072 Y0.26 E10.68239
G1 X-0.059 Y0.208 E10.68331
G1 X-0.083 Y0.103 E10.68514
G1 X-.14 Y0.014 E10.68695
G1 X-.236 Y-0.089 E10.68935
G1 X-.283 Y-.12 E10.69031
G1 X-.371 Y-.143 E10.69186
G1 X-.524 Y-0.041 E10.69499
G1 X-.638 Y0.062 E10.69761
G1 X-.683 Y0.116 E10.69881
G1 X-.541 Y0.272 E10.70241
G1 X-.428 Y0.351 E10.70476
G1 X-.331 Y0.386 E10.70652
G1 X-.252 Y0.388 E10.70786
G1 X-.204 Y0.373 E10.70872
G1 X-.129 Y0.33 E10.71019
G0 F6000 X0.168 Y0.7
;TYPE:WALL-OUTER
G1 F1500 X0.3 Y0.561 E10.71356
G1 X0.372 Y0.428 E10.71622
G1 X0.413 Y0.263 E10.7192
G1 X0.404 Y0.082 E10.72238
G1 X0.342 Y-.112 E10.72596
G1 X0.234 Y-.278 E10.72944
G1 X0.08 Y-.444 E10.73342
G1 X-0.07 Y-.543 E10.73657
G1 X-.241 Y-.604 E10.73976
G1 X-.409 Y-.616 E10.74272
G1 X-.559 Y-.578 E10.74544
G1 X-.643 Y-.536 E10.74708
G1 X-.82 Y-.412 E10.75088
G1 X-.974 Y-.272 E10.75454
G1 X-1.103 Y-.121 E10.75802
G1 X-1.188 Y-0.002 E10.76059
G1 X-1.242 Y0.096 E10.76256
G1 X-1.158 Y0.257 E10.76575
G1 X-1.064 Y0.398 E10.76872
G1 X-.97 Y0.512 E10.77132
G1 X-.858 Y0.624 E10.7741
G1 X-.758 Y0.705 E10.77636
G1 X-.646 Y0.773 E10.77866
G1 X-.547 Y0.816 E10.78055
G1 X-.434 Y0.85 E10.78263
G1 X-.324 Y0.864 E10.78457
G1 X-.221 Y0.862 E10.78638
G1 X-.122 Y0.845 E10.78815
G1 X-0.018 Y0.81 E10.79007
G1 X0.09 Y0.754 E10.79221
G1 X0.168 Y0.7 E10.79388
G0 F6000 X0.3 Y0.561
G0 X0.372 Y0.428
G0 X0.385 Y0.372
G1 F1800 E9.49388
G0 F6000 X-.277 Y0.167
G0 X0.119 Y0.437
G0 X1.635 Y1.456
G0 X1.922 Y1.91
G0 X1.759 Y1.767
;TYPE:WALL-INNER
G1 F1800 E10.79388
G1 F2100 X1.5 Y2.053 E10.80065
G1 X1.268 Y2.258 E10.80609
G1 X0.904 Y2.511 E10.81387
G1 X0.623 Y2.658 E10.81944
G1 X0.295 Y2.784 E10.82561
G1 X-0.063 Y2.867 E10.83207
G1 X-.169 Y2.881 E10.83394
G1 X-.518 Y2.896 E10.84008
G1 X-.877 Y2.862 E10.84641
G1 X-1.216 Y2.78 E10.85254
G1 X-1.546 Y2.65 E10.85877
G1 X-1.85 Y2.481 E10.86487
G1 X-2.148 Y2.262 E10.87137
G1 X-2.413 Y2.01 E10.87779
G1 X-2.65 Y1.729 E10.88425
G1 X-2.855 Y1.421 E10.89074
G1 X-3.056 Y1.047 E10.8982
G1 X-3.186 Y0.744 E10.90399
G1 F2069.8 X-3.322 Y0.344 E10.91152
G1 F1957.3 X-3.359 Y0.287 E10.9128
G1 F1660.6 X-3.499 Y-0.027 E10.92043
G1 F1529.6 X-3.545 Y-.515 E10.93225
G1 F1584.9 X-3.56 Y-.886 E10.94089
G1 F1589.9 X-3.552 Y-1.381 E10.95237
G1 F1558 X-3.524 Y-1.843 E10.96333
G1 F1497.8 X-3.477 Y-2.305 E10.97476
G1 F1723.1 X-3.286 Y-2.765 E10.98542
G1 F2100 X-3.165 Y-3.314 E10.9953
G1 X-3.043 Y-3.777 E11.00371
G1 X-2.867 Y-4.09 E11.01001
G1 X-2.619 Y-4.259 E11.01528
G1 X-2.449 Y-4.305 E11.01838
G1 X-1.12 Y-4.497 E11.04196
G1 F1774.6 X-.737 Y-4.543 E11.04997
G1 F1543.6 X-.612 Y-4.48 E11.05332
G1 X-.496 Y-4.404 E11.05663
G1 F1699.8 X-.377 Y-4.173 E11.06227
G1 F2000 X-.261 Y-3.645 E11.07224
G1 F2100 X-.305 Y-3.468 E11.07544
G1 X-.439 Y-3.179 E11.08103
G1 X-.664 Y-2.652 E11.0911
G1 X-.355 Y-2.707 E11.09661
G1 X-.127 Y-2.718 E11.10062
G1 X0.174 Y-2.697 E11.10592
G1 X0.467 Y-2.639 E11.11116
G1 X0.562 Y-2.612 E11.1129
G1 X0.859 Y-2.493 E11.11851
G1 X1.067 Y-2.38 E11.12267
G1 X1.31 Y-2.211 E11.12787
G1 X1.559 Y-1.989 E11.13373
G1 X1.819 Y-1.687 E11.14073
G1 X2.001 Y-1.411 E11.14653
G1 X2.183 Y-1.045 E11.15371
G1 X2.299 Y-.693 E11.16022
G1 X2.369 Y-.316 E11.16695
G1 X2.387 Y0.00 E11.17251
G1 X2.353 Y0.424 E11.17998
G1 X2.27 Y0.785 E11.18649
G1 X2.145 Y1.128 E11.1929
G1 X2.018 Y1.382 E11.19788
G1 X1.759 Y1.767 E11.20603
G1 F1800 E9.90603
G0 F6000 X1.922 Y1.91
G0 X0.997 Y2.643
G0 X0.283 Y2.956
G0 X-.47 Y3.06
G0 X-1.212 Y2.95
G0 X-1.902 Y2.638
G0 X-2.495 Y2.156
G0 X-4.047 Y0.045
G0 X-4.169 Y0.045
G1 F1800 E11.20603
G1 F1723.1 X-4.26 Y0.487 E11.21569
G1 F2069.8 X-4.266 Y7.44 E11.33958
G1 F2100 X8.58 Y0.00 E11.60027
G1 X1.107 Y-4.329 E11.75194
G1 F2000 X0.205 Y-4.823 E11.7709
G1 F1699.8 X-.121 Y-4.94 E11.77842
G1 F1534.2 X-.46 Y-5.136 E11.78783
G1 F1774.6 X-.925 Y-5.505 E11.80017
G1 F2100 X-4.266 Y-7.44 E11.86797
G1 F2082.6 X-4.263 Y-2.826 E11.94967
G1 F1711.4 X-4.161 Y-2.366 E11.95982
G1 F1520.4 X-4.189 Y-1.406 E11.98312
G1 F1572.5 X-4.184 Y-.412 E12.00643
G1 F1525 X-4.169 Y0.045 E12.01749
G1 F1800 E10.71749
G0 F6000 X-4.047 Y0.045
G0 X-2.495 Y2.156
G0 X-1.902 Y2.638
G0 X-1.212 Y2.95
G0 X-.47 Y3.06
G0 X0.283 Y2.956
G0 X0.86 Y2.704
G0 X1.645 Y2.216
G0 X1.182 Y1.693
;TYPE:WALL-OUTER
G1 F1800 E12.01749
G1 F1500 X0.941 Y1.904 E12.02311
G1 X0.653 Y2.101 E12.02924
G1 X0.401 Y2.232 E12.03423
G1 X0.13 Y2.333 E12.03931
G1 X-.198 Y2.402 E12.0452
G1 X-.482 Y2.417 E12.05019
G1 X-.774 Y2.393 E12.05534
G1 X-1.016 Y2.34 E12.05969
G1 X-1.319 Y2.227 E12.06536
G1 X-1.573 Y2.089 E12.07044
G1 X-1.797 Y1.931 E12.07525
G1 X-2.05 Y1.696 E12.08132
G1 X-2.252 Y1.46 E12.08677
G1 X-2.434 Y1.19 E12.09249
G1 X-2.604 Y0.88 E12.0987
G1 X-2.753 Y0.532 E12.10535
G1 F1503.1 X-2.856 Y0.199 E12.11146
G1 X-2.938 Y-.171 E12.1181
G1 F1500 X-2.984 Y-.526 E12.12439
G1 X-3.004 Y-.932 E12.13152
G1 X-2.996 Y-1.337 E12.13864
G1 X-2.961 Y-1.765 E12.14618
G1 X-2.901 Y-2.2 E12.15389
G1 X-2.817 Y-2.662 E12.16214
G1 X-2.701 Y-3.192 E12.17167
G1 X-2.579 Y-3.654 E12.18006
G1 X-2.52 Y-3.758 E12.18216
G1 X-2.437 Y-3.815 E12.18392
G1 X-2.381 Y-3.83 E12.18494
G1 X-1.051 Y-4.022 E12.20854
G1 X-.933 Y-4.01 E12.21062
G1 X-.861 Y-3.969 E12.21208
G1 X-.783 Y-3.874 E12.21424
G1 X-.738 Y-3.702 E12.21736
G1 X-.753 Y-3.643 E12.21843
G1 X-.88 Y-3.369 E12.22373
G1 X-1.111 Y-2.828 E12.23406
G1 X-1.264 Y-2.415 E12.2418
G1 X-1.273 Y-2.412 E12.24196
